!!!!SEGMENT: pl-cz--iii-225--001_fleming-jan--missa-in-d-kyrie.krn
!!!cenid: 17xx:210
!!!COM: Fleming, Jan
!!!COM-rismID: pe30093579
!!!CDT: <1796->1796
!!!CNT:
!!!OPR: Missa in D
!!!OTL: Kyrie
!!!OMV: 001
!!!PDT:
!!!AGN: Sacred; Mass
!!!SMS-siglum: PL-CZ
!!!SMS-shelfmark: III-225
!!!SMS-shelfwork: 001-001 M
!!!NIFC-rismSourceID:
!!!NIFC-islandoraID: pl-cz:36768
!!!URL-pdf-islandora: https://repozytorium.nifc.pl/islandora/object/pl-cz%3A36768/datastream/PDF/view
!!!URL-scan:
!!!ONB-nifc: UWAGA: części Mszy: Kyrie, Gloria, Credo, Sanctus, Agnus
!!!AIN: 1 alto 2 bass 2 empty 2 flt 1 tenor 2 violn 1 vox
!!!key:
**kern	**dynam	**kern	**text	**kern	**text	**kern	**text	**kern	**text	**kern	**dynam	**kern	**dynam	**kern	**kern	**kern	**kern
*part11	*part11	*part10	*part10	*part9	*part9	*part8	*part8	*part7	*part7	*part6	*part6	*part5	*part5	*part4	*part3	*part2	*part1
*staff11	*	*staff10	*staff10	*staff9	*staff9	*staff8	*staff8	*staff7	*staff7	*staff6	*	*staff5	*	*staff4	*staff3	*staff2	*staff1
*group5	*	*group4	*	*group4	*	*group4	*	*group4	*	*group3	*	*group3	*	*group2	*group2	*group1	*group1
*Ibass	*	*Ibass	*	*Itenor	*	*Ialto	*	*Ivox	*	*Ivioln	*	*Ivioln	*	*Iempty	*Iempty	*Iflt	*Iflt
*I"Basso	*	*I"Basso	*	*I"Tenore	*	*I"Alto	*	*I"Canto	*	*I"Violino secondo	*	*I"Violino primo	*	*I"Cornu Secondo.	*I"Cornu Primo in D	*I"Flauto Secondo	*I"Flauto Primo
*I'Bc	*	*I'B	*	*I'T	*	*I'A	*	*I'C	*	*I'Vn II	*	*I'Vn I	*	*I'Cor II	*I'Cor I	*	*
*clefF4	*	*clefF4	*	*clefC4	*	*clefC3	*	*clefC1	*	*clefG2	*	*clefG2	*	*clefG2	*clefG2	*clefG2	*clefG2
*	*	*	*	*	*	*	*	*	*	*	*	*	*	*ITrd-1c-2	*ITrd-1c-2	*	*
*k[f#c#]	*	*k[f#c#]	*	*k[f#c#]	*	*k[f#c#]	*	*k[f#c#]	*	*k[f#c#]	*	*k[f#c#]	*	*k[f#c#]	*k[f#c#]	*k[f#c#]	*k[f#c#]
*D:	*	*D:	*	*D:	*	*D:	*	*D:	*	*D:	*	*D:	*	*	*	*	*
*M2/4	*	*M2/4	*	*M2/4	*	*M2/4	*	*M2/4	*	*M2/4	*	*M2/4	*	*M2/4	*M2/4	*	*
=1	=1	=1	=1	=1	=1	=1	=1	=1	=1	=1	=1	=1	=1	=1	=1	=1	=1
*	*	*	*	*	*	*	*	*	*	*	*	*	*below	*	*	*	*
!LO:TX:a:t=Allo Molto	!LO:DY:t=f:	!LO:TX:a:t=Allo no Molto.	!	!LO:TX:a:t=Allo n: Molto.	!	!LO:TX:a:t=Allo n: Molto.	!	!LO:TX:a:t=Allo n: Molto.	!	!LO:TX:a:t=Allo no Molti	!	!LO:TX:a:t=all: n. Motto	!	!LO:TX:a:t=allo	!LO:TX:a:B:t=Allegro non molto	!	!
4D/	f	4d\	Ky-	4d\	Ky-	4a\	Ky-	4ff#\	Ky-	8dd\LL	.	8dd\L	f	8dd\L	8ff#\L	2ryy	2ryy
.	.	.	.	.	.	.	.	.	.	16ff#\	.	16ff#\L	.	8dd\	8ff#\	.	.
.	.	.	.	.	.	.	.	.	.	16aa\JJ	.	16aa\JJ	.	.	.	.	.
4AA/	.	4A\	.	4d\	.	4a\	-ri-	4ff#\	-ri-	8ff#\L	.	8ddd\L	.	8dd\	8ff#\	.	.
.	.	.	.	.	.	.	.	.	.	8ff#\J	.	8dd\J	.	8dd\J	8ff#\J	.	.
=2	=2	=2	=2	=2	=2	=2	=2	=2	=2	=2	=2	=2	=2	=2	=2	=2	=2
8D/L	.	8F#\	-ri	8e\	-ri	8dd\	.	8gg\	-e	16bb\LL	.	16ddd\LL	.	4dd\	4ff#\	2ryy	2ryy
.	.	.	.	.	.	.	.	.	.	16aa\	.	16ccc#X\	.	.	.	.	.
8D/	.	8D\	e	8d\	e	8dd\	-e	8ff#\	.	16aa\	.	16ccc#\	.	.	.	.	.
.	.	.	.	.	.	.	.	.	.	16gg\JJ	.	16bb\JJ	.	.	.	.	.
8D/	.	4r	.	4r	.	4r	.	4r	.	8.gg\L	.	8bb\L	.	4r	4r	.	.
8D/J	.	.	.	.	.	.	.	.	.	.	.	8aa\J	.	.	.	.	.
.	.	.	.	.	.	.	.	.	.	16ff#\Jk	.	.	.	.	.	.	.
=3	=3	=3	=3	=3	=3	=3	=3	=3	=3	=3	=3	=3	=3	=3	=3	=3	=3
4.AA/	.	8A\L	Ky-	8c#\	Ky-	8a\L	Ky-	8ee\	Ky-	8cc#\L	.	8ee\L	.	4a/	4ee\	2ryy	2ryy
.	.	8B\J	-ri-	8e\	-ri-	8a\J	-ri-	8gg\	-ri-	(24ee\L	.	(24gg\L	.	.	.	.	.
.	.	.	.	.	.	.	.	.	.	24dd\	.	24ff#\	.	.	.	.	.
.	.	.	.	.	.	.	.	.	.	24cc#\JJ)	.	24ee\JJ)	.	.	.	.	.
!	!	!	!	!	!	!LO:TX:a:t=sic!:s=4a	!	!	!	!	!	!	!	!	!	!	!
.	.	8c#\	-e	16e\LL	-e	4a\L	-ee	16gg\LL	-e	16gg\LL	.	16bb\LL	.	8a/L	8ee\L	.	.
.	.	.	.	16d\JJ	.	.	.	16ff#\	.	16ff#\	.	16aa\	.	.	.	.	.
8C#/	.	8A\	e-	16d\LL	.	.	.	16ff#\	.	16ff#\	.	16aa\	.	8a/J	8ee\J	.	.
!	!	!	!	!LO:TX:a:t=sic!:s=c	!	!	!	!	!	!	!	!	!	!	!	!	!
.	.	.	.	16B\JJ	.	.	.	16ee\JJ	.	16ee\JJ	.	16gg\JJ	.	.	.	.	.
=4	=4	=4	=4	=4	=4	=4	=4	=4	=4	=4	=4	=4	=4	=4	=4	=4	=4
16D\LL	.	8d\	-lei-	8A\	-lei-	8a\	-lei-	8ee\	-ley-	8ee\L	.	8gg\L	.	8a\L	8ee\L	2ryy	2ryy
16d\	.	.	.	.	.	.	.	.	.	.	.	.	.	.	.	.	.
16c#\	.	8D\	-son	8F#\	-son	8d\	-son	8dd\	-son	8dd\J	.	8ff#\J	.	8dd\J	8ff#\J	.	.
16B\JJ	.	.	.	.	.	.	.	.	.	.	.	.	.	.	.	.	.
16A\LL	.	4r	.	4r	.	4r	.	4r	.	4r	.	4r	.	4r	4r	.	.
16G\	.	.	.	.	.	.	.	.	.	.	.	.	.	.	.	.	.
16F#\	.	.	.	.	.	.	.	.	.	.	.	.	.	.	.	.	.
16E\JJ	.	.	.	.	.	.	.	.	.	.	.	.	.	.	.	.	.
=5	=5	=5	=5	=5	=5	=5	=5	=5	=5	=5	=5	=5	=5	=5	=5	=5	=5
!	!	!LO:N:vis=00	!	!LO:N:vis=00	!	!LO:N:vis=00	!	!LO:N:vis=0	!	!	!	!	!	!	!	!	!
8D\L	.	0r	.	1r	.	0r	.	1r	.	8d/L	.	8d/L	.	2r	2r	2ryy	2ryy
8d\	.	.	.	.	.	.	.	.	.	16f#/L	.	16f#/L	.	.	.	.	.
.	.	.	.	.	.	.	.	.	.	16a/JJ	.	16a/JJ	.	.	.	.	.
!	!	!	!	!	!	!	!	!	!	!	!	!LO:TX:a:t=problem:mixed beam	!	!	!	!	!
8A\	.	.	.	.	.	.	.	.	.	8f#/L	.	8dd\L	.	.	.	.	.
8F#\J	.	.	.	.	.	.	.	.	.	8d/J	.	8d/J	.	.	.	.	.
=6	=6	=6	=6	=6	=6	=6	=6	=6	=6	=6	=6	=6	=6	=6	=6	=6	=6
!	!	!	!	!	!	!	!	!	!	!LO:LB:g=original	!	!	!	!	!	!	!
8D/L	.	.	.	.	.	.	.	.	.	16b\LL	.	16dd\LL	.	16ff#\LL	16aa\LL	2ryy	2ryy
.	.	.	.	.	.	.	.	.	.	16a\	.	16cc#\	.	16ee\	16gg\	.	.
8D/	.	.	.	.	.	.	.	.	.	16a\	.	16cc#\	.	16gg\	16bb\	.	.
.	.	.	.	.	.	.	.	.	.	16g\JJ	.	16b\JJ	.	16ff#\JJ	16aa\JJ	.	.
!	!	!	!	!	!	!	!	!	!	!	!	!LO:LB:g=original	!	!	!	!	!
8D/	.	.	.	.	.	.	.	.	.	8.g/L	.	8.b\L	.	8.ff#\L	8.aa\L	.	.
8D/J	.	.	.	.	.	.	.	.	.	.	.	.	.	.	.	.	.
.	.	.	.	.	.	.	.	.	.	16f#/Jk	.	16a\Jk	.	16ee\Jk	16gg\Jk	.	.
=7	=7	=7	=7	=7	=7	=7	=7	=7	=7	=7	=7	=7	=7	=7	=7	=7	=7
8AA/L	.	.	.	2r	.	.	.	2r	.	8A/L	.	8A/L	.	4r	4r	2ryy	2ryy
*	*	*	*	*	*	*	*	*	*	*Xtuplet	*	*	*	*	*	*	*
!	!	!	!	!	!	!	!	!	!	!	!	!LO:TUP:b	!	!	!	!	!
8AA/	.	.	.	.	.	.	.	.	.	24c#/L	.	(24c#/L	.	.	.	.	.
.	.	.	.	.	.	.	.	.	.	24B/	.	24B/	.	.	.	.	.
.	.	.	.	.	.	.	.	.	.	24A/JJ	.	24A/JJ)	.	.	.	.	.
8AA/	.	.	.	.	.	.	.	.	.	16g/LL	.	16b/LL	.	16gg\LL	16bb\LL	.	.
.	.	.	.	.	.	.	.	.	.	16f#/	.	16a/	.	16ff#\	16aa\	.	.
8C#/J	.	.	.	.	.	.	.	.	.	16f#/	.	16g/	.	16ff#\	16aa\	.	.
.	.	.	.	.	.	.	.	.	.	16e/JJ	.	16f#/JJ	.	16ee\JJ	16gg\JJ	.	.
=8	=8	=8	=8	=8	=8	=8	=8	=8	=8	=8	=8	=8	=8	=8	=8	=8	=8
!LO:LB:g=original	!	!	!	!	!	!	!	!	!	!	!	!	!	!	!	!	!
!LO:TX:a:t=problem:mixed beam	!	!	!	!	!	!	!	!	!	!	!	!	!	!	!	!	!
8D\L	.	.	.	4r	.	.	.	4r	.	8e/L	.	8g/L	.	8ee\L	8gg\L	2ryy	2ryy
8d\	.	.	.	.	.	.	.	.	.	8d/J	.	8f#/J	.	8dd\J	8ff#\J	.	.
8D/J	.	.	.	8r	.	.	.	8r	.	8r	.	8r	.	4r	4r	.	.
!	!	!	!	!LO:TX:a:t=Solo	!	!	!	!	!	!	!	!	!	!	!	!	!
8r	.	.	.	8c#\	Ky-	.	.	8ee\	Ky-	8cc#\	.	8ee\	p	.	.	.	.
=9	=9	=9	=9	=9	=9	=9	=9	=9	=9	=9	=9	=9	=9	=9	=9	=9	=9
!	!	!	!	!	!	!LO:N:vis=00	!	!LO:TX:a:t=Solo	!	!	!	!	!	!LO:TX:a:t=4	!LO:N:vis=00	!	!
!	!LO:DY:t=p	!LO:N:vis=00	!	!	!	!	!	!	!	!	!	!	!	!LO:N:vis=00	!	!	!
4AA/	p	0r	.	8c#\L	.	0r	.	8ee\L	.	(8cc#\L	p	8ee\L	.	0r	0r	2ryy	2ryy
.	.	.	.	8e\J	.	.	.	8aa\J	.	8ee\J)	.	8aa\J	.	.	.	.	.
4r	.	.	.	8A\L	-ri-	.	.	8cc#\L	-ri-	8a\L	.	8cc#\L	.	.	.	.	.
.	.	.	.	8c#\J	.	.	.	8ee\J	.	8cc#\J	.	8ee\J	.	.	.	.	.
=10	=10	=10	=10	=10	=10	=10	=10	=10	=10	=10	=10	=10	=10	=10	=10	=10	=10
!	!	!	!	!LO:LB:g=original	!	!	!	!LO:LB:g=original	!	!	!	!	!	!	!	!	!
.	.	.	.	8qqc#/	.	.	.	8qqee/	.	8qqcc#/	.	8qqee/	.	.	.	.	.
*	*	*	*	*2\right	*	*	*	*2\right	*	*2\right	*	*2\right	*	*	*	*	*
8r	.	.	.	2B\	-e	.	.	2dd\	-e	2b\	.	2dd\	.	.	.	2ryy	2ryy
8E\L	.	.	.	.	.	.	.	.	.	.	.	.	.	.	.	.	.
8G#X\	.	.	.	.	.	.	.	.	.	.	.	.	.	.	.	.	.
8E\J	.	.	.	.	.	.	.	.	.	.	.	.	.	.	.	.	.
=11	=11	=11	=11	=11	=11	=11	=11	=11	=11	=11	=11	=11	=11	=11	=11	=11	=11
.	.	.	.	.	.	.	.	.	.	.	.	8qqgg/	.	.	.	.	.
4EE/	.	.	.	8B\L	Ky-	.	.	8dd\L	Ky-	(8b\L	.	8dd\L	.	.	.	2ryy	2ryy
.	.	.	.	8d\J	.	.	.	8ff#\J	.	8dd\)	.	8ff#\J	.	.	.	.	.
.	.	.	.	.	.	.	.	.	.	.	.	8qqgg/	.	.	.	.	.
4r	.	.	.	8G\L	-ri-	.	.	8b\L	-ri-	(8g#X\	.	8b\L	.	.	.	.	.
.	.	.	.	8B\J	.	.	.	8dd\J	.	8b\J)	.	8dd\J	.	.	.	.	.
=12	=12	=12	=12	=12	=12	=12	=12	=12	=12	=12	=12	=12	=12	=12	=12	=12	=12
.	.	.	.	8qqB/	.	.	.	8qqdd/	.	8qqb/	.	8qqdd/	.	.	.	.	.
8r	.	.	.	2A\	-e	.	.	2cc#\	-e	2a/	.	2cc#\	.	.	.	2ryy	2ryy
8AA/L	.	.	.	.	.	.	.	.	.	.	.	.	.	.	.	.	.
8C#/	.	.	.	.	.	.	.	.	.	.	.	.	.	.	.	.	.
8E/J	.	.	.	.	.	.	.	.	.	.	.	.	.	.	.	.	.
=13	=13	=13	=13	=13	=13	=13	=13	=13	=13	=13	=13	=13	=13	=13	=13	=13	=13
!	!LO:DY:t=f:	!	!	!	!	!	!	!	!	!	!	!	!	!	!	!	!
8A\L	f	4A\	Ky-	4e\	Ky-	4a\	Ky-	4cc#\	Ky-	8a\L	.	8a\L	.	4a/	4a/	2ryy	2ryy
8B\	.	.	.	.	.	.	.	.	.	16cc#\L	.	16cc#\L	.	.	.	.	.
.	.	.	.	.	.	.	.	.	.	16ee\JJ	.	16ee\JJ	.	.	.	.	.
!	!	!	!	!	!	!	!	!	!	!LO:LB:g=original	!	!	!	!	!	!	!
8c#\	.	4A\	.	4e\	-ri-	4a\	-ri-	4cc#\	-ri-	16cc#\LL	f	16aa\LL	.	4r	4r	.	.
.	.	.	.	.	.	.	.	.	.	16cc#\	.	16aa\	.	.	.	.	.
8E\J	.	.	.	.	.	.	.	.	.	16cc#\	.	16aa\	f	.	.	.	.
.	.	.	.	.	.	.	.	.	.	16cc#\JJ	.	16aa\JJ	.	.	.	.	.
=14	=14	=14	=14	=14	=14	=14	=14	=14	=14	=14	=14	=14	=14	=14	=14	=14	=14
*	*	*	*	*	*	*	*	*	*	*tremolo	*	*tremolo	*	*	*	*	*
!LO:TX:a:t=problem:mixed beam	!	!	!	!	!	!LO:LB:g=original	!	!	!	!	!	!	!	!	!	!	!
8F#\L	.	4A\	-ri	4e\	-e-	4a\	-e	4cc#\	-e-	16cc#\LL	.	16aa\LL	.	4a/	4a/	2ryy	2ryy
.	.	.	.	.	.	.	.	.	.	16cc#\	.	16aa\	.	.	.	.	.
8G#X\	.	.	.	.	.	.	.	.	.	16cc#\	.	16aa\	.	.	.	.	.
.	.	.	.	.	.	.	.	.	.	16cc#\	.	16aa\	.	.	.	.	.
8A\	.	4AA/	e	4e\	.	4a\	.	4cc#\	.	16cc#\	.	16aa\	.	4r	4r	.	.
.	.	.	.	.	.	.	.	.	.	16cc#\	.	16aa\	.	.	.	.	.
8AA\/	.	.	.	.	.	.	.	.	.	16cc#\	.	16aa\	.	.	.	.	.
.	.	.	.	.	.	.	.	.	.	16cc#\JJ	.	16aa\JJ	.	.	.	.	.
*	*	*	*	*	*	*	*	*	*	*Xtremolo	*	*Xtremolo	*	*	*	*	*
=15	=15	=15	=15	=15	=15	=15	=15	=15	=15	=15	=15	=15	=15	=15	=15	=15	=15
8AA/L	.	8AA/	Ky-	8d\	-Ky-	8a\	Ky-	8cc#\	-Ky-	8aa\L	.	8aa\L	.	4a/	4a/	2ryy	2ryy
8BB/	.	8BB/	-ri-	8e\	-ri-	8b\	-ri-	8dd\	-ri-	16gg#X\L	.	16gg#X\L	.	.	.	.	.
.	.	.	.	.	.	.	.	.	.	16ff#\JJ	.	16ff#\JJ	.	.	.	.	.
8C#/	.	8C#/	-e	8f#\	-e	8cc#\	-e	8ee\	-e	16ee\LL	.	16ee\LL	.	4r	4r	.	.
.	.	.	.	.	.	.	.	.	.	16dd\	.	16dd\	.	.	.	.	.
8D/J	.	8AA/	e-	8e\	e-	8b\	e-	8dd\	e-	16cc#\	.	16cc#\	.	.	.	.	.
.	.	.	.	.	.	.	.	.	.	16b\JJ	.	16b\JJ	.	.	.	.	.
=16	=16	=16	=16	=16	=16	=16	=16	=16	=16	=16	=16	=16	=16	=16	=16	=16	=16
!LO:LB:g=original	!	!LO:LB:g=original	!	!	!	!	!	!	!	!	!	!LO:LB:g=original	!	!LO:N:vis=0	!LO:LB:g=original	!	!
!	!	!	!	!	!	!	!	!	!	!	!	!	!	!LO:TX:a:t=2	!LO:N:vis=0	!	!
8E/L	.	(4D\	-lei-	(4A\	-lei-	4a\	-lei-	(4cc#\	-ley-	4a/	.	4a/	.	1r	1r	2ryy	2ryy
8E/	.	.	.	.	.	.	.	.	.	.	.	.	.	.	.	.	.
8EE/	.	4E\)	.	4G#X\)	.	4e\	.	4b\)	.	4e/	.	4bT/	.	.	.	.	.
8EE/J	.	.	.	.	.	.	.	.	.	.	.	.	.	.	.	.	.
=17	=17	=17	=17	=17	=17	=17	=17	=17	=17	=17	=17	=17	=17	=17	=17	=17	=17
4AA/	.	4AA/	-son	4A\	-son	4A/	-son	4a\	-son	8a/L	.	8a/L	.	.	.	2ryy	2ryy
.	.	.	.	.	.	.	.	.	.	8e/J	.	8e/J	.	.	.	.	.
16A\LL	.	4r	.	4r	.	4r	.	4r	.	4A/	.	4A/	.	.	.	.	.
16Gn\	.	.	.	.	.	.	.	.	.	.	.	.	.	.	.	.	.
16F#\	.	.	.	.	.	.	.	.	.	.	.	.	.	.	.	.	.
16E\JJ	.	.	.	.	.	.	.	.	.	.	.	.	.	.	.	.	.
=18	=18	=18	=18	=18	=18	=18	=18	=18	=18	=18	=18	=18	=18	=18	=18	=18	=18
*	*	*	*	*	*	*	*	*	*	*tuplet	*	*	*	*	*	*	*
4D/	.	4d\	Ky-	4f#\	Ky-	4f#\	Ky-	4dd\	Ky-	(24dd\LL	.	(24dd\LL	.	4f#/	4dd\	2ryy	2ryy
.	.	.	.	.	.	.	.	.	.	24cc#\	.	24cc#\	.	.	.	.	.
.	.	.	.	.	.	.	.	.	.	24dd\JJ)	f	24dd\JJ)	.	.	.	.	.
.	.	.	.	.	.	.	.	.	.	4d/	.	4d/	.	.	.	.	.
16r	.	8D\	-ri-	8f#\	-ri-	8f#\	-ri-	8dd\	-ri-	.	.	.	.	8f#/L	8dd\L	.	.
16d\LL	.	.	.	.	.	.	.	.	.	.	.	.	.	.	.	.	.
16A\	.	8D\	-e	8f#\	-e	8f#\	-e	8dd\	-e	8dd\	.	8dd\	.	8f#/J	8dd\J	.	.
16F#\JJ	.	.	.	.	.	.	.	.	.	.	.	.	.	.	.	.	.
=19	=19	=19	=19	=19	=19	=19	=19	=19	=19	=19	=19	=19	=19	=19	=19	=19	=19
!	!	!	!	!LO:LB:g=original	!	!	!	!LO:LB:g=original	!	!	!	!	!	!LO:LB:g=original	!	!	!
4D/	.	4D\	e-	4d\	e-	4a\	e-	4ff#\	e-	(24ff#\LL	.	(24ff#\LL	.	4dd\	4ff#\	2ryy	2ryy
.	.	.	.	.	.	.	.	.	.	24ee\	.	24ee\	.	.	.	.	.
.	.	.	.	.	.	.	.	.	.	24ff#\JJ)	.	24ff#\JJ)	.	.	.	.	.
.	.	.	.	.	.	.	.	.	.	4dd\	.	4dd\	.	.	.	.	.
16r	.	8D\	-lei-	8d\	-lei-	8a\	-lei-	8ff#\	-lei-	.	.	.	.	8dd\L	8ff#\L	.	.
16d\LL	.	.	.	.	.	.	.	.	.	.	.	.	.	.	.	.	.
16A\	.	8D\	-son	8d\	-son	8a\	-son	8ff#\	-son	8ff#\	.	8ff#\	.	8dd\J	8ff#\J	.	.
16F#\JJ	.	.	.	.	.	.	.	.	.	.	.	.	.	.	.	.	.
=20	=20	=20	=20	=20	=20	=20	=20	=20	=20	=20	=20	=20	=20	=20	=20	=20	=20
8D\L	.	8D\	Ky-	8d\	Ky-	8a\	Ky-	8ff#\	Ky-	8dd\L	.	8dd\L	.	4dd\	4ff#\	2ryy	2ryy
8E\	.	8E\	-ri-	8d\	-ri-	8a\	-ri-	8ff#\	-ri-	16dd\L	.	16ff#\L	.	.	.	.	.
.	.	.	.	.	.	.	.	.	.	16ff#\JJ	.	16aa\JJ	.	.	.	.	.
*	*	*	*	*	*	*	*	*	*	*tremolo	*	*	*	*	*	*	*
8F#\	.	8F#\	-e	8d\	-e	8a\	-e	8ff#\	-e	16ff#\LL	.	16cccn\LL	.	4r	4r	.	.
.	.	.	.	.	.	.	.	.	.	16ff#\	.	16ccc\	.	.	.	.	.
8E\J	.	8E\	e-	8d\	e-	8a\	e-	8ff#\	e-	16ff#\	.	16ccc\	.	.	.	.	.
.	.	.	.	.	.	.	.	.	.	16ff#\JJ	.	16ccc\JJ	.	.	.	.	.
*	*	*	*	*	*	*	*	*	*	*Xtremolo	*	*	*	*	*	*	*
=21	=21	=21	=21	=21	=21	=21	=21	=21	=21	=21	=21	=21	=21	=21	=21	=21	=21
*	*	*	*	*	*	*	*	*	*	*Xtuplet	*	*	*	*	*	*	*
!	!	!	!	!	!	!LO:LB:g=original	!	!	!	!	!	!	!	!LO:TX:a:t=2	!	!	!
!	!	!	!	!	!	!	!	!	!	!	!	!	!	!LO:N:vis=0	!LO:N:vis=0	!	!
8D\L	.	4D\	-lei-	4d\	-lei-	4a\	-lei-	4ff#\	-ley-	(24aa\LL	.	(24ccc#\LL	.	1r	1r	2ryy	2ryy
.	.	.	.	.	.	.	.	.	.	24gg\	.	24bb\	.	.	.	.	.
.	.	.	.	.	.	.	.	.	.	24aa\JJ)	.	24ccc#\JJ)	.	.	.	.	.
8D\	.	.	.	.	.	.	.	.	.	4ff#\	.	4aa\	.	.	.	.	.
8D\	.	4D\	-son	4d\	-son	4a\	-son	4ff#\	-son	.	.	.	.	.	.	.	.
8D\J	.	.	.	.	.	.	.	.	.	8aa\	.	8ccc#\	.	.	.	.	.
=22	=22	=22	=22	=22	=22	=22	=22	=22	=22	=22	=22	=22	=22	=22	=22	=22	=22
!	!	!	!	!	!	!	!	!	!	!LO:LB:g=original	!	!	!	!	!	!	!
8G\L	.	8G\L	e-	8g\L	e-	8b\L	e-	16gg\LL	e-	16gg\LL	.	16bb\LL	.	.	.	2ryy	2ryy
.	.	.	.	.	.	.	.	16b\	.	16b\	.	16gg\	.	.	.	.	.
8D\J	.	8D\J	-lei-	8f#\J	-lei-	8a\J	-lei-	16cc#\	-lei-	16cc#\	.	16aa\	.	.	.	.	.
.	.	.	.	.	.	.	.	16a\JJ	.	16a\JJ	.	16ff#\JJ	.	.	.	.	.
4GG/	.	4GG/	-son	4g\	-son	4b\	-son	4b\	-son	8.a\L	.	8.ff#\L	.	.	.	.	.
.	.	.	.	.	.	.	.	.	.	16b\Jk	.	16gg\Jk	.	.	.	.	.
=23	=23	=23	=23	=23	=23	=23	=23	=23	=23	=23	=23	=23	=23	=23	=23	=23	=23
*	*	*	*	*	*	*	*	*	*	*	*	*Xtuplet	*	*	*	*	*
4E\	.	4e\	Ky-	4E/	Ky-	4g#X\	Ky-	4ee\	Ky-	(24ee\LL	.	24ee\LL	.	4ee\	4ee\	2ryy	2ryy
!	!	!	!	!	!	!	!	!	!	!LO:TX:a:t=sic:s=dd#	!	!	!	!	!	!	!
.	.	.	.	.	.	.	.	.	.	24dd\	.	24dd#X\	.	.	.	.	.
.	.	.	.	.	.	.	.	.	.	24ee\JJ)	.	24ee\JJ	.	.	.	.	.
.	.	.	.	.	.	.	.	.	.	4e/	.	4e/	.	.	.	.	.
16r	.	8e\	-ri-	8E/	-ri-	8g#\	-ri-	8ee\	-ri-	.	.	.	.	8ee\L	8ee\L	.	.
16E\LL	.	.	.	.	.	.	.	.	.	.	.	.	.	.	.	.	.
16G#X\	.	8e\	-e	8E/	-e	8g#\	-e	8ee\	-e	8ee\	.	8ee\	.	8ee\J	8ee\J	.	.
16B\JJ	.	.	.	.	.	.	.	.	.	.	.	.	.	.	.	.	.
=24	=24	=24	=24	=24	=24	=24	=24	=24	=24	=24	=24	=24	=24	=24	=24	=24	=24
*	*	*	*	*	*	*	*	*	*	*	*	*tuplet	*	*	*	*	*
!LO:LB:g=original	!	!	!	!	!	!	!	!	!	!	!	!	!	!	!	!	!
4E/	.	4e\	e-	4B\	e-	4g\	e-	4gg#X\	e-	24gg#X\LL	.	24gg#X\LL	.	4ee\	4ee\	2ryy	2ryy
.	.	.	.	.	.	.	.	.	.	24ff#\	.	24ff#\	.	.	.	.	.
.	.	.	.	.	.	.	.	.	.	24gg#\JJ	.	24gg#\JJ	.	.	.	.	.
!	!	!	!	!	!	!	!	!	!	!	!	!LO:LB:g=original	!	!	!	!	!
.	.	.	.	.	.	.	.	.	.	4ee\	.	4ee\	.	.	.	.	.
16r	.	8e\	-lei-	8B\	-lei-	8g\	-lei-	8gg#\	-ley-	.	.	.	.	4r	4r	.	.
16E\LL	.	.	.	.	.	.	.	.	.	.	.	.	.	.	.	.	.
16G#X\	.	8E\	-son	8B\	-son	8g\	-son	8gg#\	-son	8gg#\	.	8gg#\	.	.	.	.	.
16B\JJ	.	.	.	.	.	.	.	.	.	.	.	.	.	.	.	.	.
=25	=25	=25	=25	=25	=25	=25	=25	=25	=25	=25	=25	=25	=25	=25	=25	=25	=25
!	!	!LO:LB:g=original	!	!	!	!	!	!	!	!	!	!	!	!LO:TX:a:t=3	!	!	!
!	!	!	!	!	!	!	!	!	!	!	!	!	!	!LO:N:vis=0	!LO:N:vis=0	!	!
8E\L	.	8E\	Ky-	8B\	Ky-	8g\	Ky-	8gg\L	Ky-	8ee\L	.	8ee\L	.	1r	1r	2ryy	2ryy
8F#\	.	8F#\	-ri-	8B\	-ri-	8g\	-ri-	8gg\	-ri-	16ee\L	.	16gg#X\L	.	.	.	.	.
.	.	.	.	.	.	.	.	.	.	16gg#X\JJ	.	16bb\JJ	.	.	.	.	.
*	*	*	*	*	*	*	*	*	*	*tremolo	*	*	*	*	*	*	*
8G#X\	.	8G\	-e	8B\	-e	8g\	-e	8gg\	-e	16bb\LL	.	16ddd\LL	.	.	.	.	.
.	.	.	.	.	.	.	.	.	.	16bb\	.	16ddd\	.	.	.	.	.
8F#\J	.	8F#\	e-	8B\	e-	8g\	e-	8gg\J	e-	16bb\	.	16ddd\	.	.	.	.	.
.	.	.	.	.	.	.	.	.	.	16bb\JJ	.	16ddd\JJ	.	.	.	.	.
*	*	*	*	*	*	*	*	*	*	*Xtremolo	*	*	*	*	*	*	*
=26	=26	=26	=26	=26	=26	=26	=26	=26	=26	=26	=26	=26	=26	=26	=26	=26	=26
*tremolo	*	*	*	*	*	*	*	*	*	*	*	*	*	*	*	*	*
*2\right	*	*	*	*	*	*	*	*	*	*	*	*	*	*	*	*	*
!	!	!	!	!LO:LB:g=original	!	!	!	!LO:LB:g=original	!	!	!	!	!	!	!	!	!
8E\L	.	4E\	-lei-	4B\	-lei-	4g\	-lei-	4gg\	-lei-	24bb\LL	.	(24ddd\LL	.	.	.	2ryy	2ryy
.	.	.	.	.	.	.	.	.	.	24aa\	.	24ccc#\	.	.	.	.	.
.	.	.	.	.	.	.	.	.	.	24bb\JJ	.	24ddd\JJ)	.	.	.	.	.
8E\	.	.	.	.	.	.	.	.	.	4gg#X\	.	4bb\	.	.	.	.	.
8E\	.	4E\	-son	4B\	-son	4g\	-son	4gg\	-son	.	.	.	.	.	.	.	.
8E\J	.	.	.	.	.	.	.	.	.	8bb\	.	8ddd\	.	.	.	.	.
=27	=27	=27	=27	=27	=27	=27	=27	=27	=27	=27	=27	=27	=27	=27	=27	=27	=27
8A\L	.	8E\L	e-	16c#\LL	e-	8a\L	.	16aa\LL	.	16aa\LL	.	16ccc#\LL	.	2r	2r	2ryy	2ryy
.	.	.	.	16c#\	-lei-	.	.	16cc#\	e	16cc#\	.	16aa\	.	.	.	.	.
8E\	.	8G#X\J	-lei-	16d\	.	8g\J	-ley-	16dd\	-lei-	16dd\	.	16bb\	.	.	.	.	.
.	.	.	.	16B\JJ	.	.	.	16b\JJ	.	16b\JJ	.	16gg#X\JJ	.	.	.	.	.
8AA\J	.	4A\	-son	8.B\L	-son	4a\	-son	8.b\L	-son	8.b\L	.	8.gg#\L	.	.	.	.	.
8r	.	.	.	.	.	.	.	.	.	.	.	.	.	.	.	.	.
.	.	.	.	16c#\Jk	.	.	.	16cc#\Jk	.	16cc#\Jk	.	16aa\Jk	.	.	.	.	.
=28	=28	=28	=28	=28	=28	=28	=28	=28	=28	=28	=28	=28	=28	=28	=28	=28	=28
!	!	!	!	!	!	!LO:LB:g=original	!	!	!	!	!	!	!	!	!	!	!
8D\L	.	4d\	lei-	4d\	lei-	4a\	-lei-	4ff#\	-lei-	8dd\L	.	(16dd\LL	.	4dd\	4ff#\	2ryy	2ryy
.	.	.	.	.	.	.	.	.	.	.	.	32ee\L	.	.	.	.	.
.	.	.	.	.	.	.	.	.	.	.	.	32ff#\	.	.	.	.	.
!	!	!	!	!	!	!	!	!	!	!LO:TX:a:t=problem:niezrozumiały napis	!	!	!	!	!	!	!
8D\	.	.	.	.	.	.	.	.	.	(32dd\LL	.	32gg\	.	.	.	.	.
.	.	.	.	.	.	.	.	.	.	32cc#\	.	32aa\	.	.	.	.	.
.	.	.	.	.	.	.	.	.	.	32dd\	.	32bb\	.	.	.	.	.
.	.	.	.	.	.	.	.	.	.	32ee\JJJ)	.	32ccc#\JJJ)	.	.	.	.	.
8D\	.	4D\	-son	4d\	-son	4a\	-son	4ff#\	-son	16ff#\LL	.	16ddd\LL	.	4r	4r	.	.
.	.	.	.	.	.	.	.	.	.	16dd\	.	16aa\	.	.	.	.	.
8D\J	.	.	.	.	.	.	.	.	.	16a\	.	16ff#\	.	.	.	.	.
.	.	.	.	.	.	.	.	.	.	16f#\JJ	.	16dd\JJ	.	.	.	.	.
=29	=29	=29	=29	=29	=29	=29	=29	=29	=29	=29	=29	=29	=29	=29	=29	=29	=29
!	!	!	!	!	!	!	!	!	!	!LO:LB:g=original	!	!	!	!	!	!	!
8D\L	.	2r	.	2r	.	2r	.	2r	.	16ff#\LL	.	16a/LL	.	16ff#\LL	16aa\LL	2ryy	2ryy
.	.	.	.	.	.	.	.	.	.	16dd\	.	16f#/	.	16dd\	16ff#\	.	.
8D\	.	.	.	.	.	.	.	.	.	16gg\	.	16b/	.	16gg\	16bb\	.	.
.	.	.	.	.	.	.	.	.	.	16ff#\JJ	.	16a/JJ	.	16ff#\JJ	16aa\JJ	.	.
8D\	.	.	.	.	.	.	.	.	.	8.ff#\L	.	8.a/L	.	8.ff#\L	8.aa\L	.	.
8D\J	.	.	.	.	.	.	.	.	.	.	.	.	.	.	.	.	.
.	.	.	.	.	.	.	.	.	.	16ee\Jk	.	16g/Jk	.	16ee\Jk	16gg\Jk	.	.
=30	=30	=30	=30	=30	=30	=30	=30	=30	=30	=30	=30	=30	=30	=30	=30	=30	=30
!	!	!	!	!	!	!	!	!	!	!	!	!	!	!	!LO:TX:a:t=problem:brak taktu w źródle	!	!
8AA/L	.	4A\	lei-	4c#\	lei-	4a\	lei-	4ee\	lei-	8cc#\L	.	(16a\LL	.	4a/	2ryy	2ryy	2ryy
.	.	.	.	.	.	.	.	.	.	.	.	32b\L	.	.	.	.	.
.	.	.	.	.	.	.	.	.	.	.	.	32cc#\	.	.	.	.	.
!	!	!	!	!	!	!	!	!	!	!LO:TX:a:t=problem:niezrozumiały napis\npod pochodem 32, \nbyć może "tercję wyżej"	!	!	!	!	!	!	!
8AA/	.	.	.	.	.	.	.	.	.	(32cc#\LL	.	32dd\	.	.	.	.	.
.	.	.	.	.	.	.	.	.	.	32b\	.	32ee\	.	.	.	.	.
.	.	.	.	.	.	.	.	.	.	32cc#\	.	32ff#\	.	.	.	.	.
.	.	.	.	.	.	.	.	.	.	32dd\JJJ)	.	32gg#X\JJJ)	.	.	.	.	.
!	!	!	!	!	!	!	!	!	!	!	!	!LO:LB:g=original	!	!	!	!	!
8AA/	.	4AA/	-son	4c#\	-son	4a\	-son	4ee\	-son	16ee\LL	.	16aa\LL	.	4r	.	.	.
.	.	.	.	.	.	.	.	.	.	16cc#\	.	16ee\	.	.	.	.	.
8AA/J	.	.	.	.	.	.	.	.	.	16cc#\	.	16cc#\	.	.	.	.	.
.	.	.	.	.	.	.	.	.	.	16a\JJ	.	16a\JJ	.	.	.	.	.
=31	=31	=31	=31	=31	=31	=31	=31	=31	=31	=31	=31	=31	=31	=31	=31	=31	=31
8AA/L	.	2r	.	2r	.	2r	.	2r	.	16ee\LL	.	16ggn\LL	.	16ee\LL	4r	2ryy	2ryy
.	.	.	.	.	.	.	.	.	.	16cc#\	.	16ee\	.	16a\	.	.	.
8AA/	.	.	.	.	.	.	.	.	.	16ff#\	.	16aa\	.	16ff#\	.	.	.
.	.	.	.	.	.	.	.	.	.	16ee\JJ	.	16gg\JJ	.	16ee\JJ	.	.	.
8AA/	.	.	.	.	.	.	.	.	.	8.ee\L	.	8.gg\L	.	8.ee\L	16bb\LL	.	.
.	.	.	.	.	.	.	.	.	.	.	.	.	.	.	16aa\	.	.
8AA/J	.	.	.	.	.	.	.	.	.	.	.	.	.	.	16aa\	.	.
.	.	.	.	.	.	.	.	.	.	16dd\Jk	.	16ff#\Jk	.	16dd\Jk	16gg\JJ	.	.
=32	=32	=32	=32	=32	=32	=32	=32	=32	=32	=32	=32	=32	=32	=32	=32	=32	=32
!	!	!	!	!	!	!	!	!	!	!LO:TX:a:t=mixed beam	!	!LO:TX:a:t=problem:mixed beam	!	!	!	!	!
16D\LL	.	8D\	Ky-	8d\	Ky-	8a\	Ky-	8ff#\	Ky-	8f#/L	.	8dd\L	.	4dd\	4ff#\	2ryy	2ryy
16D\	.	.	.	.	.	.	.	.	.	.	.	.	.	.	.	.	.
16D\	.	8r	.	8r	.	8r	.	8r	.	8d/	.	8d/J	.	.	.	.	.
16D\	.	.	.	.	.	.	.	.	.	.	.	.	.	.	.	.	.
16D\	.	8D\	-ri-	8d\	-ri-	8a\	-ri-	8ff#\	-ri-	8dd\	.	8ff#\L	.	4dd\	4ff#\	.	.
16D\	.	.	.	.	.	.	.	.	.	.	.	.	.	.	.	.	.
16D\	.	8r	.	8r	.	8r	.	8r	.	8f#/J	.	8dd\J	.	.	.	.	.
16D\JJ	.	.	.	.	.	.	.	.	.	.	.	.	.	.	.	.	.
=33	=33	=33	=33	=33	=33	=33	=33	=33	=33	=33	=33	=33	=33	=33	=33	=33	=33
16D\LL	.	8d\	-e	8d\	-e	8a\	-e	8ff#\L	e	8ff#\L	.	8aa\L	.	4dd\	4ff#\	2ryy	2ryy
16D\	.	.	.	.	.	.	.	.	.	.	.	.	.	.	.	.	.
16D\	.	8D\	e-	8d\	e-	8a\	e-	8ff#\J	-e-	8dd\J	.	8ff#\J	.	.	.	.	.
16D\JJ	.	.	.	.	.	.	.	.	.	.	.	.	.	.	.	.	.
16F#\LL	.	4r	.	4r	.	4r	.	4r	.	16aa\LL	.	16ddd\LL	.	8dd\L	8ff#\L	.	.
16F#\	.	.	.	.	.	.	.	.	.	16ff#\	.	16aa\	.	.	.	.	.
16F#\	.	.	.	.	.	.	.	.	.	16dd\	.	16ff#\	.	8dd\J	8ff#\J	.	.
16F#\JJ	.	.	.	.	.	.	.	.	.	16a\JJ	.	16dd\JJ	.	.	.	.	.
=34	=34	=34	=34	=34	=34	=34	=34	=34	=34	=34	=34	=34	=34	=34	=34	=34	=34
16A\LL	.	4G\	-lei-	4d\	-lei-	(4f#\	-lei-	4ff#\	-lei-	4a\	.	4a\	.	4dd\	4ff#\	2ryy	2ryy
16A\	.	.	.	.	.	.	.	.	.	.	.	.	.	.	.	.	.
16A\	.	.	.	.	.	.	.	.	.	.	.	.	.	.	.	.	.
16A\JJ	.	.	.	.	.	.	.	.	.	.	.	.	.	.	.	.	.
16AA/LL	.	4A\	.	4A\	.	4a\)	.	4ee\	.	4cc#\	.	4eeT\	.	4a/	4ee\	.	.
16AA/	.	.	.	.	.	.	.	.	.	.	.	.	.	.	.	.	.
16AA/	.	.	.	.	.	.	.	.	.	.	.	.	.	.	.	.	.
16AA/JJ	.	.	.	.	.	.	.	.	.	.	.	.	.	.	.	.	.
*Xtremolo	*	*	*	*	*	*	*	*	*	*	*	*	*	*	*	*	*
=35	=35	=35	=35	=35	=35	=35	=35	=35	=35	=35	=35	=35	=35	=35	=35	=35	=35
!	!	!	!	!	!	!	!	!	!	!LO:TX:a:t=problem:mixed beam	!	!LO:TX:a:t=problem:mixed beam	!	!	!	!	!
4D\	.	4D\	-son	4F#/	-son	4f#\	-son	4dd\	-son	8dd/L	.	8dd\L	.	4d/	4dd\	2ryy	2ryy
.	.	.	.	.	.	.	.	.	.	8d/J	.	8d/J	.	.	.	.	.
4r	.	4r	.	4r	.	4r	.	4r	.	4r	.	4r	.	4r	4r	.	.
=36||	=36||	=36||	=36||	=36||	=36||	=36||	=36||	=36||	=36||	=36||	=36||	=36||	=36||	=36||	=36||	=36||	=36||
!LO:LB:g=original	!	!LO:LB:g=original	!	!LO:LB:g=original	!	!	!	!LO:LB:g=original	!	!LO:LB:g=original	!	!LO:LB:g=original	!	!	!	!	!
*k[f#c#g#]	*	*k[f#c#g#]	*	*k[f#c#g#]	*	*k[f#c#g#]	*	*k[f#c#g#]	*	*k[f#c#g#]	*	*k[f#c#g#]	*	*k[f#c#g#]	*k[f#c#g#]	*	*
*A:	*	*A:	*	*A:	*	*A:	*	*A:	*	*A:	*	*A:	*	*A:	*A:	*	*
!LO:TX:a:t=adagio	!	!	!	!LO:N:vis=00	!	!	!	!LO:TX:b:t=Christe	!	!LO:TX:b:t=Christe	!	!LO:TX:b:t=Christe	!	!	!	!	!
!LO:TX:b:t=Christe	!	!LO:TX:a:t=Christe tacet	!	!	!	!LO:TX:a:t=Christe tacet	!	!LO:TX:a:t=25	!	!	!	!LO:TX:a:B:t=adagio	!	!LO:TX:a:t=Christe tacet	!LO:TX:a:t=Christe tacet	!	!
!LO:TX:a:t=problem:mixed beam	!	!	!	!	!	!LO:TX:a:t=Kyrie da Capo	!	!LO:N:vis=00	!	!	!	!	!	!	!	!	!
8AA/L	.	2ryy	.	0r	.	2ryy	.	0r	.	4ee\	.	4ee\	.	2ryy	2ryy	2ryy	2ryy
8c#\	.	.	.	.	.	.	.	.	.	.	.	.	.	.	.	.	.
.	.	.	.	.	.	.	.	.	.	8qqee/	.	.	.	.	.	.	.
8B\	.	.	.	.	.	.	.	.	.	4dd\	.	4dd\	.	.	.	.	.
8E\J	.	.	.	.	.	.	.	.	.	.	.	.	.	.	.	.	.
=37	=37	=37	=37	=37	=37	=37	=37	=37	=37	=37	=37	=37	=37	=37	=37	=37	=37
4A\	.	2ryy	.	.	.	2ryy	.	.	.	(16cc#\LL	.	(16cc#\LL	.	2ryy	2ryy	2ryy	2ryy
.	.	.	.	.	.	.	.	.	.	16a\	.	16a\	.	.	.	.	.
.	.	.	.	.	.	.	.	.	.	16b\	.	16b\	.	.	.	.	.
.	.	.	.	.	.	.	.	.	.	16cc#\JJ)	.	16cc#\JJ)	.	.	.	.	.
4r	.	.	.	.	.	.	.	.	.	(16dd\LL	.	(16dd\LL	.	.	.	.	.
.	.	.	.	.	.	.	.	.	.	16ee\	.	16ee\	.	.	.	.	.
.	.	.	.	.	.	.	.	.	.	16ff#\	.	16ff#\	.	.	.	.	.
.	.	.	.	.	.	.	.	.	.	16gg#\JJ)	.	16gg#\JJ)	.	.	.	.	.
=38	=38	=38	=38	=38	=38	=38	=38	=38	=38	=38	=38	=38	=38	=38	=38	=38	=38
8AA/L	.	2ryy	.	.	.	2ryy	.	.	.	8.aa\L	.	8.aa\L	.	2ryy	2ryy	2ryy	2ryy
8E/	.	.	.	.	.	.	.	.	.	.	.	.	.	.	.	.	.
.	.	.	.	.	.	.	.	.	.	16ee\Jk	.	16ee\Jk	.	.	.	.	.
.	.	.	.	.	.	.	.	.	.	8qqee/	.	8qqee/	.	.	.	.	.
8F#/	.	.	.	.	.	.	.	.	.	4dd\	.	4dd\	.	.	.	.	.
8G#/J	.	.	.	.	.	.	.	.	.	.	.	.	.	.	.	.	.
=39	=39	=39	=39	=39	=39	=39	=39	=39	=39	=39	=39	=39	=39	=39	=39	=39	=39
.	.	.	.	.	.	.	.	.	.	8qqdd/	.	8qqdd/	.	.	.	.	.
!LO:TX:a:t=problem:mixed beam	!	!	!	!	!	!	!	!	!	!	!	!	!	!	!	!	!
8A\L	.	2ryy	.	.	.	2ryy	.	.	.	4cc#\	.	4cc#\	.	2ryy	2ryy	2ryy	2ryy
8A\	.	.	.	.	.	.	.	.	.	.	.	.	.	.	.	.	.
8AA/ 8C#	.	.	.	.	.	.	.	.	.	8r	.	8r	.	.	.	.	.
8AA/J 8C#	.	.	.	.	.	.	.	.	.	8e/	.	8e/	.	.	.	.	.
=40	=40	=40	=40	=40	=40	=40	=40	=40	=40	=40	=40	=40	=40	=40	=40	=40	=40
!	!	!	!	!LO:N:vis=00	!	!	!	!LO:N:vis=00	!	!LO:TX:a:t=mixed beam	!	!	!	!	!	!	!
8D\L	.	2ryy	.	0r	.	2ryy	.	0r	.	8f#/L	.	8f#/L	.	2ryy	2ryy	2ryy	2ryy
8D\	.	.	.	.	.	.	.	.	.	(16dd\L	.	16dd/L	.	.	.	.	.
.	.	.	.	.	.	.	.	.	.	16b\JJ)	.	16b/JJ	.	.	.	.	.
.	.	.	.	.	.	.	.	.	.	.	.	8qqa/	.	.	.	.	.
8E\	.	.	.	.	.	.	.	.	.	8a/L	.	4g#/	.	.	.	.	.
8E\J	.	.	.	.	.	.	.	.	.	8g#/J	.	.	.	.	.	.	.
=41	=41	=41	=41	=41	=41	=41	=41	=41	=41	=41	=41	=41	=41	=41	=41	=41	=41
!LO:TX:a:t=problem:mixed beam	!	!	!	!	!	!	!	!	!	!	!	!	!	!	!	!	!
8AA/L	.	2ryy	.	.	.	2ryy	.	.	.	8.a\L	.	8.a\L	.	2ryy	2ryy	2ryy	2ryy
8d\	.	.	.	.	.	.	.	.	.	.	.	.	.	.	.	.	.
.	.	.	.	.	.	.	.	.	.	16ff#\K	.	16ff#\Jk	.	.	.	.	.
.	.	.	.	.	.	.	.	.	.	.	.	8qqff#/	.	.	.	.	.
8c#\	.	.	.	.	.	.	.	.	.	8.ee\	.	8.ee\L	.	.	.	.	.
8G#\J	.	.	.	.	.	.	.	.	.	.	.	.	.	.	.	.	.
.	.	.	.	.	.	.	.	.	.	16dd\Jk	.	16dd\Jk	.	.	.	.	.
=42	=42	=42	=42	=42	=42	=42	=42	=42	=42	=42	=42	=42	=42	=42	=42	=42	=42
!LO:LB:g=original	!	!	!	!	!	!	!	!	!	!	!	!	!	!	!	!	!
8A\L	.	2ryy	.	.	.	2ryy	.	.	.	8cc#\L	.	8cc#\L	.	2ryy	2ryy	2ryy	2ryy
8C#\	.	.	.	.	.	.	.	.	.	16aa\L	.	16aa\L	.	.	.	.	.
.	.	.	.	.	.	.	.	.	.	16ee\JJ	.	16ee\JJ	.	.	.	.	.
8D\	.	.	.	.	.	.	.	.	.	16dd\LL	.	16dd\LL	.	.	.	.	.
.	.	.	.	.	.	.	.	.	.	16cc#\	.	16cc#\	.	.	.	.	.
8D#X\J	.	.	.	.	.	.	.	.	.	16b\	.	16b\	.	.	.	.	.
.	.	.	.	.	.	.	.	.	.	16a\JJ	.	16a\JJ	.	.	.	.	.
=43	=43	=43	=43	=43	=43	=43	=43	=43	=43	=43	=43	=43	=43	=43	=43	=43	=43
!	!	!	!	!	!	!	!	!	!	!LO:LB:g=original	!	!	!	!	!	!	!
.	.	.	.	.	.	.	.	.	.	8qqa/	.	8qqa/	.	.	.	.	.
8E\L	.	2ryy	.	.	.	2ryy	.	.	.	4g#/	.	4g#/	.	2ryy	2ryy	2ryy	2ryy
8E\	.	.	.	.	.	.	.	.	.	.	.	.	.	.	.	.	.
8G#\	.	.	.	.	.	.	.	.	.	4r	.	4r	.	.	.	.	.
8B\J	.	.	.	.	.	.	.	.	.	.	.	.	.	.	.	.	.
=44	=44	=44	=44	=44	=44	=44	=44	=44	=44	=44	=44	=44	=44	=44	=44	=44	=44
*tremolo	*	*	*	*	*	*	*	*	*	*	*	*	*	*	*	*	*
!	!	!	!	!LO:N:vis=00	!	!	!	!LO:N:vis=00	!	!	!	!LO:LB:g=original	!	!	!	!	!
8E\L	.	2ryy	.	0r	.	2ryy	.	0r	.	8.g#/L	p	8.b\L	.	2ryy	2ryy	2ryy	2ryy
8E\	.	.	.	.	.	.	.	.	.	.	.	.	.	.	.	.	.
.	.	.	.	.	.	.	.	.	.	16cc#/Jk	.	16ee\Jk	p	.	.	.	.
!	!	!	!	!	!	!	!	!	!	!LO:TX:a:t=sic:trudny do rozszyfrowania zapis	!	!	!	!	!	!	!
.	.	.	.	.	.	.	.	.	.	.	.	8qqee/	.	.	.	.	.
8E\	.	.	.	.	.	.	.	.	.	8dd\L	.	8dd#X\L	.	.	.	.	.
!	!	!	!	!	!	!	!	!	!	!LO:TX:a:t=problem:po tej nucie trzy takty zostały wykreślone	!	!	!	!	!	!	!
8E\J	.	.	.	.	.	.	.	.	.	8cc#\J	.	8cc#\J	.	.	.	.	.
=45	=45	=45	=45	=45	=45	=45	=45	=45	=45	=45	=45	=45	=45	=45	=45	=45	=45
8E\L	.	2ryy	.	.	.	2ryy	.	.	.	8.g#/L	.	8.b\L	.	2ryy	2ryy	2ryy	2ryy
8E\	.	.	.	.	.	.	.	.	.	.	.	.	.	.	.	.	.
.	.	.	.	.	.	.	.	.	.	16a/Jk	.	16cc#\Jk	.	.	.	.	.
.	.	.	.	.	.	.	.	.	.	8qqa/	.	8qqcc#/	.	.	.	.	.
8E\	.	.	.	.	.	.	.	.	.	8g#/L	.	8b\L	.	.	.	.	.
8E\J	.	.	.	.	.	.	.	.	.	8f#/J	.	8a\J	.	.	.	.	.
=46	=46	=46	=46	=46	=46	=46	=46	=46	=46	=46	=46	=46	=46	=46	=46	=46	=46
.	.	.	.	.	.	.	.	.	.	8qqf#/	.	8qqa/	.	.	.	.	.
!	!	!	!	!	!	!	!	!	!	!LO:TX:a:t=problem:mixed beam	!	!LO:TX:a:t=problem:mixed beam	!	!	!	!	!
8E\L	.	2ryy	.	.	.	2ryy	.	.	.	8.e/L	.	8.g#/L	.	2ryy	2ryy	2ryy	2ryy
8E\	.	.	.	.	.	.	.	.	.	.	.	.	.	.	.	.	.
.	.	.	.	.	.	.	.	.	.	16cc#\Jk	.	16ee\Jk	.	.	.	.	.
.	.	.	.	.	.	.	.	.	.	8qqcc#/	.	8qqee/	.	.	.	.	.
8E\	.	.	.	.	.	.	.	.	.	8b\L	.	8dd#X\L	.	.	.	.	.
8E\J	.	.	.	.	.	.	.	.	.	8a\J	.	8cc#\J	.	.	.	.	.
=47	=47	=47	=47	=47	=47	=47	=47	=47	=47	=47	=47	=47	=47	=47	=47	=47	=47
.	.	.	.	.	.	.	.	.	.	8qqa/	.	8qqcc#/	.	.	.	.	.
8E\L	.	2ryy	.	.	.	2ryy	.	.	.	8.g#/L	.	8.b\L	.	2ryy	2ryy	2ryy	2ryy
8E\	.	.	.	.	.	.	.	.	.	.	.	.	.	.	.	.	.
.	.	.	.	.	.	.	.	.	.	16a/Jk	.	16cc#\Jk	.	.	.	.	.
8E\	.	.	.	.	.	.	.	.	.	8g#/L	.	8b\L	.	.	.	.	.
8E\J	.	.	.	.	.	.	.	.	.	8f#/J	.	8a\J	.	.	.	.	.
*Xtremolo	*	*	*	*	*	*	*	*	*	*	*	*	*	*	*	*	*
=48	=48	=48	=48	=48	=48	=48	=48	=48	=48	=48	=48	=48	=48	=48	=48	=48	=48
!LO:TX:a:t=problem:mixed beam	!	!	!	!LO:N:vis=00	!	!	!	!LO:N:vis=00	!	!	!	!	!	!	!	!	!
8E\L	.	2ryy	.	0r	.	2ryy	.	0r	.	16e/LL	.	8g#/	.	2ryy	2ryy	2ryy	2ryy
.	.	.	.	.	.	.	.	.	.	16cc#/	.	.	.	.	.	.	.
8A\	.	.	.	.	.	.	.	.	.	16b/	.	(24aa\LL	.	.	.	.	.
.	.	.	.	.	.	.	.	.	.	.	.	24gg#\	.	.	.	.	.
.	.	.	.	.	.	.	.	.	.	16a/JJ	.	.	.	.	.	.	.
.	.	.	.	.	.	.	.	.	.	.	.	24ff#\JJ)	.	.	.	.	.
.	.	.	.	.	.	.	.	.	.	8qqa/	.	8qqee/	.	.	.	.	.
8B\	.	.	.	.	.	.	.	.	.	4g#/	.	4dd#X\	.	.	.	.	.
8BB/J	.	.	.	.	.	.	.	.	.	.	.	.	.	.	.	.	.
=49	=49	=49	=49	=49	=49	=49	=49	=49	=49	=49	=49	=49	=49	=49	=49	=49	=49
!	!	!	!	!	!	!	!	!	!	!LO:LB:g=original	!	!	!	!	!	!	!
.	.	.	.	.	.	.	.	.	.	8qqf#/	.	8qqdd/	.	.	.	.	.
8E\L	.	2ryy	.	.	.	2ryy	.	.	.	4g#/	.	4ee\	.	2ryy	2ryy	2ryy	2ryy
16E\L	.	.	.	.	.	.	.	.	.	.	.	.	.	.	.	.	.
16Dn\JJ	.	.	.	.	.	.	.	.	.	.	.	.	.	.	.	.	.
8C#/L	.	.	.	.	.	.	.	.	.	4r	.	4r	.	.	.	.	.
8BB/J	.	.	.	.	.	.	.	.	.	.	.	.	.	.	.	.	.
=50	=50	=50	=50	=50	=50	=50	=50	=50	=50	=50	=50	=50	=50	=50	=50	=50	=50
!LO:TX:a:t=problem:mixed beam	!	!	!	!	!	!	!	!	!	!	!	!	!	!	!	!	!
8AA/L	.	2ryy	.	.	.	2ryy	.	.	.	4cc#\	.	4ee\	f	2ryy	2ryy	2ryy	2ryy
8A\	.	.	.	.	.	.	.	.	.	.	.	.	.	.	.	.	.
8c#\	.	.	.	.	.	.	.	.	.	4ee\	.	4ggn\	.	.	.	.	.
8A\J	.	.	.	.	.	.	.	.	.	.	.	.	.	.	.	.	.
=51	=51	=51	=51	=51	=51	=51	=51	=51	=51	=51	=51	=51	=51	=51	=51	=51	=51
4d\	.	2ryy	.	.	.	2ryy	.	.	.	8dd\	.	8ff#\	.	2ryy	2ryy	2ryy	2ryy
.	.	.	.	.	.	.	.	.	.	4gn/	.	4cc#\	.	.	.	.	.
4D\	.	.	.	.	.	.	.	.	.	.	.	.	.	.	.	.	.
.	.	.	.	.	.	.	.	.	.	8f#/	.	8ddn\	.	.	.	.	.
=52	=52	=52	=52	=52	=52	=52	=52	=52	=52	=52	=52	=52	=52	=52	=52	=52	=52
!LO:LB:g=original	!	!	!	!LO:N:vis=00	!	!	!	!LO:N:vis=00	!	!	!	!	!	!	!	!	!
!LO:TX:a:t=problem:mixed beam	!	!	!	!	!	!	!	!	!	!	!	!	!	!	!	!	!
8BB/L	.	2ryy	.	0r	.	2ryy	.	0r	.	4dd#X\	.	4ff#\	.	2ryy	2ryy	2ryy	2ryy
8B\	.	.	.	.	.	.	.	.	.	.	.	.	.	.	.	.	.
8d#X\	.	.	.	.	.	.	.	.	.	4ff#\	.	4aa\	.	.	.	.	.
8B\J	.	.	.	.	.	.	.	.	.	.	.	.	.	.	.	.	.
=53	=53	=53	=53	=53	=53	=53	=53	=53	=53	=53	=53	=53	=53	=53	=53	=53	=53
4E\	.	2ryy	.	.	.	2ryy	.	.	.	8ee\	.	8gg#\	.	2ryy	2ryy	2ryy	2ryy
.	.	.	.	.	.	.	.	.	.	4a/	.	(4dd#X\	.	.	.	.	.
4E\	.	.	.	.	.	.	.	.	.	.	.	.	.	.	.	.	.
.	.	.	.	.	.	.	.	.	.	8g#X/	.	8ee\)	.	.	.	.	.
=54	=54	=54	=54	=54	=54	=54	=54	=54	=54	=54	=54	=54	=54	=54	=54	=54	=54
!	!	!	!	!	!	!	!	!	!	!	!	!LO:LB:g=original	!	!	!	!	!
4E\	.	2ryy	.	.	.	2ryy	.	.	.	8.g#/L	.	8.b\L	.	2ryy	2ryy	2ryy	2ryy
.	.	.	.	.	.	.	.	.	.	16b/Jk	.	16ddn\Jk	.	.	.	.	.
8r	.	.	.	.	.	.	.	.	.	8.ddn\L	.	(8.ff#\L	.	.	.	.	.
8B\	.	.	.	.	.	.	.	.	.	.	.	.	.	.	.	.	.
.	.	.	.	.	.	.	.	.	.	16cc#\Jk	.	16ee\Jk)	.	.	.	.	.
=55	=55	=55	=55	=55	=55	=55	=55	=55	=55	=55	=55	=55	=55	=55	=55	=55	=55
.	.	.	.	.	.	.	.	.	.	8qqcc#/	.	8qqee/	.	.	.	.	.
8E\L	.	2ryy	.	.	.	2ryy	.	.	.	4b\	.	4dd\	.	2ryy	2ryy	2ryy	2ryy
8G#\	.	.	.	.	.	.	.	.	.	.	.	.	.	.	.	.	.
8A\	.	.	.	.	.	.	.	.	.	8a\L	.	(24cc#\LL	.	.	.	.	.
.	.	.	.	.	.	.	.	.	.	.	.	24aa\	.	.	.	.	.
.	.	.	.	.	.	.	.	.	.	.	.	24gg#\JJ)	.	.	.	.	.
8D\J	.	.	.	.	.	.	.	.	.	8b\J	.	(24ff#\LL	.	.	.	.	.
.	.	.	.	.	.	.	.	.	.	.	.	24ee\	.	.	.	.	.
.	.	.	.	.	.	.	.	.	.	.	.	24dd\JJ)	.	.	.	.	.
=56	=56	=56	=56	=56	=56	=56	=56	=56	=56	=56	=56	=56	=56	=56	=56	=56	=56
!LO:TX:a:t=problem:mixed beam	!	!	!	!LO:N:vis=00	!	!	!	!LO:N:vis=00	!	!	!	!	!	!	!	!	!
8E\L	.	2ryy	.	0r	.	2ryy	.	0r	.	4a/	.	4cc#\	.	2ryy	2ryy	2ryy	2ryy
8D\	.	.	.	.	.	.	.	.	.	.	.	.	.	.	.	.	.
8E\	.	.	.	.	.	.	.	.	.	4g#/	.	4b\	.	.	.	.	.
8EE/J	.	.	.	.	.	.	.	.	.	.	.	.	.	.	.	.	.
=57	=57	=57	=57	=57	=57	=57	=57	=57	=57	=57	=57	=57	=57	=57	=57	=57	=57
4E\	.	2ryy	.	.	.	2ryy	.	.	.	8.g#/L	p	8.b\L	.	2ryy	2ryy	2ryy	2ryy
.	.	.	.	.	.	.	.	.	.	16b/Jk	.	16dd\Jk	p	.	.	.	.
8r	.	.	.	.	.	.	.	.	.	8.dd\L	.	8.ff#\L	.	.	.	.	.
8A\	.	.	.	.	.	.	.	.	.	.	.	.	.	.	.	.	.
.	.	.	.	.	.	.	.	.	.	16cc#\Jk	.	16ee\Jk	.	.	.	.	.
=58	=58	=58	=58	=58	=58	=58	=58	=58	=58	=58	=58	=58	=58	=58	=58	=58	=58
!	!	!	!	!	!	!	!	!	!	!LO:LB:g=original	!	!	!	!	!	!	!
.	.	.	.	.	.	.	.	.	.	8qqcc#/	.	8qqee/	.	.	.	.	.
8E\L	.	2ryy	.	.	.	2ryy	.	.	.	4b\	.	4dd\	.	2ryy	2ryy	2ryy	2ryy
8G#\	.	.	.	.	.	.	.	.	.	.	.	.	.	.	.	.	.
8A\	.	.	.	.	.	.	.	.	.	8a\L	.	(24cc#\LL	.	.	.	.	.
.	.	.	.	.	.	.	.	.	.	.	.	24aa\	.	.	.	.	.
.	.	.	.	.	.	.	.	.	.	.	.	24gg#\JJ)	.	.	.	.	.
*	*	*	*	*	*	*	*	*	*	*	*	*Xtuplet	*	*	*	*	*
8D\J	.	.	.	.	.	.	.	.	.	8b\J	.	24ff#\LL	.	.	.	.	.
.	.	.	.	.	.	.	.	.	.	.	.	24ee\	f	.	.	.	.
.	.	.	.	.	.	.	.	.	.	.	.	24dd\JJ	.	.	.	.	.
=59	=59	=59	=59	=59	=59	=59	=59	=59	=59	=59	=59	=59	=59	=59	=59	=59	=59
!LO:TX:a:t=problem:mixed beam	!	!	!	!	!	!	!	!	!	!	!	!	!	!	!	!	!
8E\L	.	2ryy	.	.	.	2ryy	.	.	.	4a/	.	4cc#\	.	2ryy	2ryy	2ryy	2ryy
8D\	.	.	.	.	.	.	.	.	.	.	.	.	.	.	.	.	.
8E\	.	.	.	.	.	.	.	.	.	4g#/	.	4bT\	.	.	.	.	.
8EE/J	.	.	.	.	.	.	.	.	.	.	.	.	.	.	.	.	.
=60	=60	=60	=60	=60	=60	=60	=60	=60	=60	=60	=60	=60	=60	=60	=60	=60	=60
!	!	!	!	!LO:N:vis=00	!	!	!	!	!	!	!	!	!	!	!	!	!
4AA/	.	2ryy	.	0r	.	2ryy	.	2r	.	8a/L	f	8a/L	.	2ryy	2ryy	2ryy	2ryy
.	.	.	.	.	.	.	.	.	.	8e/J	.	8e/J	.	.	.	.	.
4r;	.	.	.	.	.	.	.	.	.	4A/	.	4A;/	.	.	.	.	.
!	!	!	!	!	!	!	!	!	!	!LO:TX:a:t=problem:fermata nad kreską taktową	!	!	!	!	!	!	!
=61||	=61||	=61	=61	=61	=61	=61	=61	=61	=61	=61||	=61||	=61||	=61||	=61	=61	=61	=61
!LO:TX:a:t=problem:mixed beam	!	!	!	!	!	!	!	!	!	!	!LO:DY:t=pia	!	!	!	!	!	!
8r	.	2ryy	.	.	.	2ryy	.	4ee\	Chri-	4cc#\	p	4ee\	p	2ryy	2ryy	2ryy	2ryy
!	!LO:DY:t=p:	!	!	!	!	!	!	!	!	!	!	!	!	!	!	!	!
8AA/L	p	.	.	.	.	.	.	.	.	.	.	.	.	.	.	.	.
.	.	.	.	.	.	.	.	8qqee/	.	.	.	.	.	.	.	.	.
8E\	.	.	.	.	.	.	.	4dd\	-ste	4b\	.	4dd\	.	.	.	.	.
8EE/J	.	.	.	.	.	.	.	.	.	.	.	.	.	.	.	.	.
=62	=62	=62	=62	=62	=62	=62	=62	=62	=62	=62	=62	=62	=62	=62	=62	=62	=62
4AA/	.	2ryy	.	.	.	2ryy	.	16cc#\	e-	16a\LL	.	(16cc#\LL	.	2ryy	2ryy	2ryy	2ryy
.	.	.	.	.	.	.	.	16a\LL	.	16a\	.	16a\	.	.	.	.	.
.	.	.	.	.	.	.	.	16b\	.	16g#\	.	16b\	.	.	.	.	.
.	.	.	.	.	.	.	.	16cc#\JJ	.	16a\JJ	.	16cc#\JJ)	.	.	.	.	.
!	!	!	!	!	!	!	!	!	!	!	!	!LO:LB:g=original	!	!	!	!	!
4r	.	.	.	.	.	.	.	16dd\LL	.	16b\LL	.	(16dd\LL	.	.	.	.	.
.	.	.	.	.	.	.	.	16ee\	.	16cc#\	.	16ee\	.	.	.	.	.
.	.	.	.	.	.	.	.	16ff#\	.	16dd\	.	16ff#\	.	.	.	.	.
.	.	.	.	.	.	.	.	16gg#\JJ	.	16b\JJ	.	16gg#\JJ)	.	.	.	.	.
=63	=63	=63	=63	=63	=63	=63	=63	=63	=63	=63	=63	=63	=63	=63	=63	=63	=63
8AA/L	.	2ryy	.	.	.	2ryy	.	8.aa\L	.	8.cc#\L	.	8.aa\L	.	2ryy	2ryy	2ryy	2ryy
8C#/	.	.	.	.	.	.	.	.	.	.	.	.	.	.	.	.	.
.	.	.	.	.	.	.	.	16ee\Jk	-ley-	16cc#\Jk	.	16ee\Jk	.	.	.	.	.
.	.	.	.	.	.	.	.	8qqee/	.	8qqcc#/	.	8qqee/	.	.	.	.	.
8E/	.	.	.	.	.	.	.	4dd\	.	4b\	.	4dd\	.	.	.	.	.
8EE/J	.	.	.	.	.	.	.	.	.	.	.	.	.	.	.	.	.
=64	=64	=64	=64	=64	=64	=64	=64	=64	=64	=64	=64	=64	=64	=64	=64	=64	=64
.	.	.	.	.	.	.	.	8qqdd/	.	8qqb/	.	8qqdd/	.	.	.	.	.
!	!	!	!	!LO:N:vis=00	!	!	!	!	!	!	!	!	!	!	!	!	!
8AA/L	.	2ryy	.	0r	.	2ryy	.	4cc#\	-son	4a/	.	4cc#\	.	2ryy	2ryy	2ryy	2ryy
8AA/	.	.	.	.	.	.	.	.	.	.	.	.	.	.	.	.	.
8C#/	.	.	.	.	.	.	.	8r	.	8r	.	8r	.	.	.	.	.
8C#/J	.	.	.	.	.	.	.	8e/	Chry-	8A/	.	8e/	.	.	.	.	.
=65	=65	=65	=65	=65	=65	=65	=65	=65	=65	=65	=65	=65	=65	=65	=65	=65	=65
!	!	!	!	!	!	!	!	!LO:LB:g=original	!	!	!	!	!	!	!	!	!
!	!	!	!	!	!	!	!	!LO:TX:a:t=problem:mixed beam	!	!	!	!	!	!	!	!	!
8D\L	.	2ryy	.	.	.	2ryy	.	8f#/L	.	8A/L	.	8f#/L	.	2ryy	2ryy	2ryy	2ryy
8D\	.	.	.	.	.	.	.	16dd\L	-ste	8f#/J	.	16dd/L	.	.	.	.	.
.	.	.	.	.	.	.	.	16b\JJ	.	.	.	16b/JJ	.	.	.	.	.
.	.	.	.	.	.	.	.	8qqa/	.	8qqc#/	.	8qqa/	.	.	.	.	.
8E\	.	.	.	.	.	.	.	4g#\	ley-	4B/	.	4g#/	.	.	.	.	.
8E\J	.	.	.	.	.	.	.	.	.	.	.	.	.	.	.	.	.
=66	=66	=66	=66	=66	=66	=66	=66	=66	=66	=66	=66	=66	=66	=66	=66	=66	=66
.	.	.	.	.	.	.	.	8qqg#/	.	.	.	.	.	.	.	.	.
!LO:TX:a:t=problem:mixed beam	!	!	!	!	!	!	!	!	!	!LO:TX:a:t=problem:mixed beam	!	!	!	!	!	!	!
8AA/L	.	2ryy	.	.	.	2ryy	.	8.a\	-son	8.c#/L	.	8.a\L	.	2ryy	2ryy	2ryy	2ryy
8A\	.	.	.	.	.	.	.	.	.	.	.	.	.	.	.	.	.
.	.	.	.	.	.	.	.	16ff#\	e-	16dd\Jk	.	16ff#\Jk	.	.	.	.	.
8A\	.	.	.	.	.	.	.	8.ee\	-ley-	8.cc#\L	.	8.ee\L	.	.	.	.	.
8A\J	.	.	.	.	.	.	.	.	.	.	.	.	.	.	.	.	.
.	.	.	.	.	.	.	.	16dd\	.	16b\Jk	.	16dd\Jk	.	.	.	.	.
=67	=67	=67	=67	=67	=67	=67	=67	=67	=67	=67	=67	=67	=67	=67	=67	=67	=67
!	!	!	!	!	!	!	!	!	!	!LO:LB:g=original	!	!	!	!	!	!	!
8AA/L	.	2ryy	.	.	.	2ryy	.	8cc#\	-son	8a'\L	.	8cc#\L	.	2ryy	2ryy	2ryy	2ryy
8C#/	.	.	.	.	.	.	.	8ee\	e-	8cc#\	.	16aa\L	.	.	.	.	.
.	.	.	.	.	.	.	.	.	.	.	.	16ee\JJ	.	.	.	.	.
.	.	.	.	.	.	.	.	.	.	.	.	8qqee/	.	.	.	.	.
8D/	.	.	.	.	.	.	.	(8dd\L	-ley-	8b\	.	8dd\L	.	.	.	.	.
8D#X/J	.	.	.	.	.	.	.	8cc#\J)	.	8a\J	.	8cc#\J	.	.	.	.	.
=68	=68	=68	=68	=68	=68	=68	=68	=68	=68	=68	=68	=68	=68	=68	=68	=68	=68
.	.	.	.	.	.	.	.	8qqcc#/	.	.	.	.	.	.	.	.	.
!	!	!	!	!LO:N:vis=00	!	!	!	!	!	!	!LO:DY:t=for	!	!	!	!	!	!
4E\	.	2ryy	.	0r	.	2ryy	.	4b\	-son	32g#'\LLL	f	32b\LLL	.	2ryy	2ryy	2ryy	2ryy
.	.	.	.	.	.	.	.	.	.	32b'\J	.	32ee\J	.	.	.	.	.
.	.	.	.	.	.	.	.	.	.	16ee'\JJ	.	16gg#\JJ	f	.	.	.	.
.	.	.	.	.	.	.	.	.	.	32g#'\LLL	.	32b\LLL	.	.	.	.	.
.	.	.	.	.	.	.	.	.	.	32b'\J	.	32ee\J	.	.	.	.	.
.	.	.	.	.	.	.	.	.	.	16ee'\JJ	.	16gg#\JJ	.	.	.	.	.
.	.	.	.	.	.	.	.	.	.	8qqg#/	.	8qqb/	.	.	.	.	.
8r	.	.	.	.	.	.	.	4r	.	4f#/	.	4a/	.	.	.	.	.
8BB/	.	.	.	.	.	.	.	.	.	.	.	.	.	.	.	.	.
=69	=69	=69	=69	=69	=69	=69	=69	=69	=69	=69	=69	=69	=69	=69	=69	=69	=69
!	!	!	!	!	!	!	!	!	!	!	!LO:DY:t=pia	!	!	!	!	!	!
8E\L	.	2ryy	.	.	.	2ryy	.	4b\	Chri-	8e/L	p	8g#/L	.	2ryy	2ryy	2ryy	2ryy
8G#\	.	.	.	.	.	.	.	.	.	8e/	.	8b/	.	.	.	.	.
8G#\	.	.	.	.	.	.	.	8ee\L	-ste	8e/	.	8b/	p	.	.	.	.
8G#\J	.	.	.	.	.	.	.	8b\J	.	8e/J	.	8b/J	.	.	.	.	.
=70	=70	=70	=70	=70	=70	=70	=70	=70	=70	=70	=70	=70	=70	=70	=70	=70	=70
*tremolo	*	*	*	*	*	*	*	*	*	*	*	*	*	*	*	*	*
!LO:LB:g=original	!	!	!	!	!	!	!	!	!	!	!	!	!	!	!	!	!
8A\L	.	2ryy	.	.	.	2ryy	.	4cc#\	-ley-	4e/	.	4cc#\	.	2ryy	2ryy	2ryy	2ryy
8A\	.	.	.	.	.	.	.	.	.	.	.	.	.	.	.	.	.
8A\	.	.	.	.	.	.	.	8aa\L	.	8cc#\L	.	8aa\L	.	.	.	.	.
8A\J	.	.	.	.	.	.	.	8ff#\J	.	8a\J	.	8ff#\J	.	.	.	.	.
*Xtremolo	*	*	*	*	*	*	*	*	*	*	*	*	*	*	*	*	*
=71	=71	=71	=71	=71	=71	=71	=71	=71	=71	=71	=71	=71	=71	=71	=71	=71	=71
!LO:TX:a:t=problem:mixed beam	!	!	!	!	!	!	!	!	!	!	!	!LO:LB:g=original	!	!	!	!	!
8B\L	.	2ryy	.	.	.	2ryy	.	4ee\	.	4g#/	.	4ee\	.	2ryy	2ryy	2ryy	2ryy
8B\	.	.	.	.	.	.	.	.	.	.	.	.	.	.	.	.	.
8BB/	.	.	.	.	.	.	.	4ff#\	.	4a/	.	4ff#T\	.	.	.	.	.
8BB/J	.	.	.	.	.	.	.	.	.	.	.	.	.	.	.	.	.
=72	=72	=72	=72	=72	=72	=72	=72	=72	=72	=72	=72	=72	=72	=72	=72	=72	=72
!	!LO:DY:t=f:	!	!	!	!	!	!	!	!	!	!	!	!	!	!	!	!
4E\	f	2ryy	.	2r	.	2ryy	.	4ee\	-son	16g#\LL	.	16ee\LL	.	2ryy	2ryy	2ryy	2ryy
!	!	!	!	!	!	!	!	!	!	!	!	!	!LO:DY:t=fo:	!	!	!	!
.	.	.	.	.	.	.	.	.	.	16ee\	.	16ee\	f	.	.	.	.
.	.	.	.	.	.	.	.	.	.	16b\	.	16b\	.	.	.	.	.
.	.	.	.	.	.	.	.	.	.	16g#\JJ	.	16g#\JJ	.	.	.	.	.
!	!	!	!	!	!	!	!	!	!	!	!LO:DY:t=for:	!	!	!	!	!	!
4r	.	.	.	.	.	.	.	4r	.	4e/	f	4e/	.	.	.	.	.
=73	=73	=73	=73	=73	=73	=73	=73	=73	=73	=73	=73	=73	=73	=73	=73	=73	=73
!	!	!	!	!	!	!	!	!LO:TX:a:t=7.	!	!	!LO:DY:t=pia	!	!	!	!	!	!
!LO:TX:a:t=problem:mixed beam	!	!	!	!	!	!	!	!LO:N:vis=00	!	!	!	!	!	!	!	!	!
8r	.	2ryy	.	4B\	Chris-	2ryy	.	0r	.	4g#/	p	4b/	p	2ryy	2ryy	2ryy	2ryy
!	!LO:DY:t=p:	!	!	!	!	!	!	!	!	!	!	!	!	!	!	!	!
8E\L	p	.	.	.	.	.	.	.	.	.	.	.	.	.	.	.	.
.	.	.	.	8qqB/	.	.	.	.	.	8qqg#/	.	.	.	.	.	.	.
8B\	.	.	.	4A\	.	.	.	.	.	4f#/	.	4a/	.	.	.	.	.
8BB/J	.	.	.	.	.	.	.	.	.	.	.	.	.	.	.	.	.
=74	=74	=74	=74	=74	=74	=74	=74	=74	=74	=74	=74	=74	=74	=74	=74	=74	=74
4E\	.	2ryy	.	16G#/	te-	2ryy	.	.	.	16e/LL	.	16g#/LL	.	2ryy	2ryy	2ryy	2ryy
.	.	.	.	16E/LL	.	.	.	.	.	16e/	.	16e/	.	.	.	.	.
.	.	.	.	16F#/	.	.	.	.	.	16d#X/	.	16f#/	.	.	.	.	.
.	.	.	.	16G#/JJ	.	.	.	.	.	16e/JJ	.	16g#/JJ	.	.	.	.	.
4r	.	.	.	16A\LL	.	.	.	.	.	16f#/LL	.	16a\LL	.	.	.	.	.
.	.	.	.	16B\	.	.	.	.	.	16g#/	.	16b\	.	.	.	.	.
.	.	.	.	16c#\	.	.	.	.	.	16a/	.	16cc#\	.	.	.	.	.
.	.	.	.	16d#X\JJ	.	.	.	.	.	16f#/JJ	.	16dd#X\JJ	.	.	.	.	.
=75	=75	=75	=75	=75	=75	=75	=75	=75	=75	=75	=75	=75	=75	=75	=75	=75	=75
!	!	!	!	!	!	!	!	!	!	!LO:LB:g=original	!	!	!	!	!	!	!
8r	.	2ryy	.	8.e\L	-ley-	2ryy	.	.	.	8.g#/L	.	8.ee\L	.	2ryy	2ryy	2ryy	2ryy
!LO:TX:a:t=problem:mixed beam	!	!	!	!	!	!	!	!	!	!	!	!	!	!	!	!	!
8E\L	.	.	.	.	.	.	.	.	.	.	.	.	.	.	.	.	.
.	.	.	.	16c#\Jk	.	.	.	.	.	16g#/Jk	.	16b\Jk	.	.	.	.	.
.	.	.	.	8qqB/	.	.	.	.	.	8qqg#/	.	8qqb/	.	.	.	.	.
8B\	.	.	.	4A\	.	.	.	.	.	4f#/	.	4a/	.	.	.	.	.
8BB/J	.	.	.	.	.	.	.	.	.	.	.	.	.	.	.	.	.
=76	=76	=76	=76	=76	=76	=76	=76	=76	=76	=76	=76	=76	=76	=76	=76	=76	=76
.	.	.	.	8qqA/	.	.	.	.	.	8qqf#/	.	8qqa/	.	.	.	.	.
8E\L	.	2ryy	.	4G#/	-son	2ryy	.	.	.	4e/	.	4g#/	.	2ryy	2ryy	2ryy	2ryy
8E\	.	.	.	.	.	.	.	.	.	.	.	.	.	.	.	.	.
8G#\	.	.	.	8r	.	.	.	.	.	8r	.	8r	.	.	.	.	.
8G#\J	.	.	.	8B\	Chri-	.	.	.	.	8e/	.	8dd\	.	.	.	.	.
=77	=77	=77	=77	=77	=77	=77	=77	=77	=77	=77	=77	=77	=77	=77	=77	=77	=77
!	!	!	!	!	!	!	!	!LO:N:vis=0	!	!LO:TX:a:t=problem:mixed beam	!	!	!	!	!	!	!
8A\L	.	2ryy	.	8c#\L	-ste	2ryy	.	1r	.	8e/L	.	8cc#\L	.	2ryy	2ryy	2ryy	2ryy
8A\	.	.	.	16a\L	.	.	.	.	.	8cc#\J	.	16aa\L	.	.	.	.	.
.	.	.	.	16f#\JJ	.	.	.	.	.	.	.	16ff#\JJ	.	.	.	.	.
.	.	.	.	8qqe/	.	.	.	.	.	8qqg#/	.	8qqee/	.	.	.	.	.
8B\	.	.	.	4d#X\	-lei-	.	.	.	.	4f#/	.	4dd#X\	.	.	.	.	.
8B\J	.	.	.	.	.	.	.	.	.	.	.	.	.	.	.	.	.
=78	=78	=78	=78	=78	=78	=78	=78	=78	=78	=78	=78	=78	=78	=78	=78	=78	=78
*tremolo	*	*	*	*	*	*	*	*	*	*	*	*	*	*	*	*	*
!	!	!	!	!LO:LB:g=original	!	!	!	!	!	!	!	!	!	!	!	!	!
.	.	.	.	8qqd/	.	.	.	.	.	.	.	.	.	.	.	.	.
8E\L	.	2ryy	.	8.e\	-son	2ryy	.	.	.	8.g#/L	.	8.ee\L	.	2ryy	2ryy	2ryy	2ryy
8E\	.	.	.	.	.	.	.	.	.	.	.	.	.	.	.	.	.
.	.	.	.	16c#\	e-	.	.	.	.	16a/Jk	.	16cc#\Jk	.	.	.	.	.
.	.	.	.	.	.	.	.	.	.	8qqa/	.	8qqcc#/	.	.	.	.	.
8E\	.	.	.	8B\L	-ley-	.	.	.	.	8g#/L	.	8.b/L	.	.	.	.	.
8E\J	.	.	.	8A\J	.	.	.	.	.	8f#/J	.	.	.	.	.	.	.
.	.	.	.	.	.	.	.	.	.	.	.	16a/Jk	.	.	.	.	.
*Xtremolo	*	*	*	*	*	*	*	*	*	*	*	*	*	*	*	*	*
=79	=79	=79	=79	=79	=79	=79	=79	=79	=79	=79	=79	=79	=79	=79	=79	=79	=79
4E\	.	2ryy	.	(8G#\L	-son	2ryy	.	2r	.	8e/L	.	8g#/L	.	2ryy	2ryy	2ryy	2ryy
.	.	.	.	8B\J)	.	.	.	.	.	8g#/	.	8b/	.	.	.	.	.
8AA/L	.	.	.	(8A\L	-e-	.	.	.	.	8f#/	.	8a/	.	.	.	.	.
8AA#X/J	.	.	.	8G#\J)	lei	.	.	.	.	8e/J	.	8g#/J	.	.	.	.	.
=80	=80	=80	=80	=80	=80	=80	=80	=80	=80	=80	=80	=80	=80	=80	=80	=80	=80
!LO:LB:g=original	!	!	!	!	!	!	!	!LO:LB:g=original	!	!	!	!LO:LB:g=original	!	!	!	!	!
.	.	.	.	8qqG#/	.	.	.	.	.	8qqe/	.	8qqg#/	.	.	.	.	.
!LO:TX:a:t=problem:mixed beam	!	!	!	!	!	!	!	!	!	!	!	!	!	!	!	!	!
8BB/L	.	2ryy	.	4F#/	-son	2ryy	.	4r	.	4d#X/	.	4f#/	.	2ryy	2ryy	2ryy	2ryy
8B\	.	.	.	.	.	.	.	.	.	.	.	.	.	.	.	.	.
8B\	.	.	.	4d#X\	Chri-	.	.	4ff#\	Chri-	8dd#X\L	.	8ff#\L	p	.	.	.	.
8B\J	.	.	.	.	.	.	.	.	.	8dd#\J	.	8ff#\J	.	.	.	.	.
=81	=81	=81	=81	=81	=81	=81	=81	=81	=81	=81	=81	=81	=81	=81	=81	=81	=81
4F#\	.	2ryy	.	8c#\	-ste	2ryy	.	8ee\L	-ste	8cc#\L	.	8ee\L	.	2ryy	2ryy	2ryy	2ryy
.	.	.	.	16A#X\LL	e-	.	.	16cc#\L	.	16a#X\L	.	16cc#\L	.	.	.	.	.
.	.	.	.	16B\JJ	.	.	.	16dd\JJ	.	16b\JJ	.	16dd#X\JJ	.	.	.	.	.
8r	.	.	.	8c#\L	-lei-	.	.	8ee\	e-	8cc#\L	.	8ee\L	.	.	.	.	.
8F#\	.	.	.	8c#\J	.	.	.	8ee\	-ley-	8cc#\J	.	8ee\J	.	.	.	.	.
=82	=82	=82	=82	=82	=82	=82	=82	=82	=82	=82	=82	=82	=82	=82	=82	=82	=82
.	.	.	.	8qqc#/	.	.	.	.	.	8qqcc#/	.	8qqee/	.	.	.	.	.
4B\	.	2ryy	.	4B\	-son	2ryy	.	4dd#X\	-son	4b\	.	4dd#X\	.	2ryy	2ryy	2ryy	2ryy
8r	.	.	.	8d#X\	Chri-	.	.	8ff#\	Chri-	8dd#X\L	.	8ff#\L	.	.	.	.	.
8B\	.	.	.	8d#\	-ste	.	.	8ff#\	-ste	8dd#\J	.	8gg#\J	.	.	.	.	.
=83	=83	=83	=83	=83	=83	=83	=83	=83	=83	=83	=83	=83	=83	=83	=83	=83	=83
!	!	!	!	!	!	!	!	!	!	!LO:LB:g=original	!	!	!	!	!	!	!
!	!	!	!	!	!	!	!	!	!	!LO:TX:a:t=sic!:s=8qdd#	!	!	!	!	!	!	!
.	.	.	.	.	.	.	.	.	.	8qqdd/	.	.	.	.	.	.	.
4F#\	.	2ryy	.	4c#\	e-	2ryy	.	8ee\	e-	8cc#\L	.	8ee\L	.	2ryy	2ryy	2ryy	2ryy
.	.	.	.	.	.	.	.	16cc#\LL	-lei-	16a#X\L	.	16cc#\L	.	.	.	.	.
.	.	.	.	.	.	.	.	16dd\JJ	.	16b\JJ	.	16dd#X\JJ	.	.	.	.	.
.	.	.	.	.	.	.	.	8qqdd/	.	.	.	.	.	.	.	.	.
8r	.	.	.	16A#X\LL	-lei-	.	.	4ee\	-son	8cc#\L	.	8ee\L	.	.	.	.	.
.	.	.	.	16B\JJ	.	.	.	.	.	.	.	.	.	.	.	.	.
8F#\	.	.	.	16c#\	.	.	.	.	.	8cc#\J	.	8ee\J	.	.	.	.	.
.	.	.	.	16c#\	-son	.	.	.	.	.	.	.	.	.	.	.	.
=84	=84	=84	=84	=84	=84	=84	=84	=84	=84	=84	=84	=84	=84	=84	=84	=84	=84
4B\	.	2ryy	.	(8B\L	Chri-	2ryy	.	8dd\L	Chri-	8b\L	.	8dd#X\L	.	2ryy	2ryy	2ryy	2ryy
.	.	.	.	8e\J)	.	.	.	8gg#\	.	8ee\	.	8gg#\	.	.	.	.	.
8r	.	.	.	(8d#X\L	-ste	.	.	8ff#\	-ste	8dd#X\	.	8ff#\	.	.	.	.	.
8E\	.	.	.	8c#\J)	.	.	.	8ee\J	e-	8cc#\J	.	8ee\J	.	.	.	.	.
=85	=85	=85	=85	=85	=85	=85	=85	=85	=85	=85	=85	=85	=85	=85	=85	=85	=85
*tremolo	*	*	*	*	*	*	*	*	*	*	*	*	*	*	*	*	*
!	!	!	!	!LO:LB:g=original	!	!	!	!	!	!	!	!	!	!	!	!	!
8F#\L	.	2ryy	.	4B\	-lei-	2ryy	.	4dd#X\	.	4b/	.	4dd#X\	.	2ryy	2ryy	2ryy	2ryy
8F#\	.	.	.	.	.	.	.	.	.	.	.	.	.	.	.	.	.
8F#\	.	.	.	4A#X\	son	.	.	4cc#\	-lei-	4a#X/	.	4cc#T\	.	.	.	.	.
8F#\J	.	.	.	.	.	.	.	.	.	.	.	.	.	.	.	.	.
=86	=86	=86	=86	=86	=86	=86	=86	=86	=86	=86	=86	=86	=86	=86	=86	=86	=86
4BB/	.	2ryy	.	4B\	.	2ryy	.	4b\	-son	8b/L	.	8b/L	.	2ryy	2ryy	2ryy	2ryy
.	.	.	.	.	.	.	.	.	.	8f#/J	.	8f#/J	.	.	.	.	.
4r	.	.	.	4r	.	.	.	4r	.	4B/	.	4B/	.	.	.	.	.
=87	=87	=87	=87	=87	=87	=87	=87	=87	=87	=87	=87	=87	=87	=87	=87	=87	=87
!	!	!	!	!LO:TX:a:t=11	!	!	!	!LO:N:vis=00	!	!	!LO:DY:t=for	!	!	!	!	!	!
!	!	!	!	!LO:N:vis=00	!	!	!	!	!	!	!	!	!	!	!	!	!
8F#\L	.	2ryy	.	0r	.	2ryy	.	0r	.	8.a#X\L	f	8.cc#\L	.	2ryy	2ryy	2ryy	2ryy
8F#\	.	.	.	.	.	.	.	.	.	.	.	.	.	.	.	.	.
.	.	.	.	.	.	.	.	.	.	16cc#\Jk	.	16ee\Jk	f	.	.	.	.
8F#\	.	.	.	.	.	.	.	.	.	8.ee\L	.	8.gg#\L	.	.	.	.	.
8F#\J	.	.	.	.	.	.	.	.	.	.	.	.	.	.	.	.	.
!	!	!	!	!	!	!	!	!	!	!LO:TX:a:t=sic!:16dd#	!	!	!	!	!	!	!
.	.	.	.	.	.	.	.	.	.	16dd\Jk	.	16ff#\Jk	.	.	.	.	.
=88	=88	=88	=88	=88	=88	=88	=88	=88	=88	=88	=88	=88	=88	=88	=88	=88	=88
.	.	.	.	.	.	.	.	.	.	8qqdd#X/	.	8qqff#/	.	.	.	.	.
8F#\L	.	2ryy	.	.	.	2ryy	.	.	.	4cc#\	.	4ee\	.	2ryy	2ryy	2ryy	2ryy
8F#\	.	.	.	.	.	.	.	.	.	.	.	.	.	.	.	.	.
8B\	.	.	.	.	.	.	.	.	.	8b\L	.	24dd#X\LL	.	.	.	.	.
.	.	.	.	.	.	.	.	.	.	.	.	24bb\	.	.	.	.	.
.	.	.	.	.	.	.	.	.	.	.	.	24aa#X\JJ	.	.	.	.	.
8E\J	.	.	.	.	.	.	.	.	.	8cc#\J	.	24gg#\LL	.	.	.	.	.
.	.	.	.	.	.	.	.	.	.	.	.	24ff#\	.	.	.	.	.
.	.	.	.	.	.	.	.	.	.	.	.	24ee\JJ	.	.	.	.	.
=89	=89	=89	=89	=89	=89	=89	=89	=89	=89	=89	=89	=89	=89	=89	=89	=89	=89
!	!	!	!	!	!	!	!	!	!	!	!	!LO:LB:g=original	!	!	!	!	!
8F#\L	.	2ryy	.	.	.	2ryy	.	.	.	4b\	.	4dd#X\	.	2ryy	2ryy	2ryy	2ryy
8F#\	.	.	.	.	.	.	.	.	.	.	.	.	.	.	.	.	.
8F#\	.	.	.	.	.	.	.	.	.	4a#X\	.	4cc#T\	.	.	.	.	.
8F#\J	.	.	.	.	.	.	.	.	.	.	.	.	.	.	.	.	.
=90	=90	=90	=90	=90	=90	=90	=90	=90	=90	=90	=90	=90	=90	=90	=90	=90	=90
!	!	!	!	!	!	!	!	!	!	!LO:TX:a:t=sic!s&colon;8.a#	!	!	!	!	!	!	!
8F#\L	.	2ryy	.	.	.	2ryy	.	.	.	8.a\L	.	8.cc#\L	.	2ryy	2ryy	2ryy	2ryy
8F#\	.	.	.	.	.	.	.	.	.	.	.	.	.	.	.	.	.
.	.	.	.	.	.	.	.	.	.	16cc#\Jk	.	16ee\Jk	p	.	.	.	.
!	!	!	!	!	!	!	!	!	!	!	!LO:DY:t=pia	!	!	!	!	!	!
8F#\	.	.	.	.	.	.	.	.	.	8.ee\L	p	8.gg#\L	.	.	.	.	.
8F#\J	.	.	.	.	.	.	.	.	.	.	.	.	.	.	.	.	.
.	.	.	.	.	.	.	.	.	.	16dd#X\Jk	.	16ff#\Jk	.	.	.	.	.
*Xtremolo	*	*	*	*	*	*	*	*	*	*	*	*	*	*	*	*	*
=91	=91	=91	=91	=91	=91	=91	=91	=91	=91	=91	=91	=91	=91	=91	=91	=91	=91
!LO:LB:g=original	!	!	!	!	!	!	!	!	!	!LO:PB:g=original	!	!	!	!	!	!	!
!	!	!	!	!	!	!	!	!LO:N:vis=0	!	!LO:TX:a:t=sic!:s=8qdd#	!	!	!	!	!	!	!
.	.	.	.	.	.	.	.	.	.	8qqdd/	.	8qqff#/	.	.	.	.	.
!	!	!	!	!LO:N:vis=00	!	!	!	!	!	!	!	!	!	!	!	!	!
8F#\L	.	2ryy	.	0r	.	2ryy	.	1r	.	4cc#\	.	4ee\	.	2ryy	2ryy	2ryy	2ryy
8F#\	.	.	.	.	.	.	.	.	.	.	.	.	.	.	.	.	.
!	!	!	!	!	!	!	!	!	!	!	!	!LO:N:vis=12	!	!	!	!	!
8B\	.	.	.	.	.	.	.	.	.	8b\L	.	24dd#X\LL	.	.	.	.	.
.	.	.	.	.	.	.	.	.	.	.	.	24bb\	.	.	.	.	.
.	.	.	.	.	.	.	.	.	.	.	.	24aa#X\JJ	.	.	.	.	.
8E\J	.	.	.	.	.	.	.	.	.	8cc#\J	.	24gg#\LL	.	.	.	.	.
.	.	.	.	.	.	.	.	.	.	.	.	24ff#\	.	.	.	.	.
.	.	.	.	.	.	.	.	.	.	.	.	24ee\JJ	.	.	.	.	.
=92	=92	=92	=92	=92	=92	=92	=92	=92	=92	=92	=92	=92	=92	=92	=92	=92	=92
*tremolo	*	*	*	*	*	*	*	*	*	*	*	*	*	*	*	*	*
8F#\L	.	2ryy	.	.	.	2ryy	.	.	.	4b\	.	4dd#X\	.	2ryy	2ryy	2ryy	2ryy
8F#\	.	.	.	.	.	.	.	.	.	.	.	.	.	.	.	.	.
8F#\	.	.	.	.	.	.	.	.	.	4a#X\	.	4cc#T\	.	.	.	.	.
8F#\J	.	.	.	.	.	.	.	.	.	.	.	.	.	.	.	.	.
*Xtremolo	*	*	*	*	*	*	*	*	*	*	*	*	*	*	*	*	*
=93	=93	=93	=93	=93	=93	=93	=93	=93	=93	=93	=93	=93	=93	=93	=93	=93	=93
!	!	!	!	!	!	!	!	!	!	!	!LO:DY:t=for	!	!	!	!	!	!
4BB/	.	2ryy	.	.	.	2ryy	.	2r	.	8b/L	f	8b/L	f	2ryy	2ryy	2ryy	2ryy
.	.	.	.	.	.	.	.	.	.	8f#/J	.	8f#/J	.	.	.	.	.
4r	.	.	.	.	.	.	.	.	.	4B/	.	4B/	.	.	.	.	.
=94	=94	=94	=94	=94	=94	=94	=94	=94	=94	=94	=94	=94	=94	=94	=94	=94	=94
!	!	!	!	!	!	!	!	!	!	!	!LO:DY:t=pia	!	!	!	!	!	!
8r	.	2ryy	.	.	.	2ryy	.	4ff#\	Chri-	4dd#X\	p	4ff#\	p	2ryy	2ryy	2ryy	2ryy
!LO:TX:a:t=problem:mixed beam	!	!	!	!	!	!	!	!	!	!	!	!	!	!	!	!	!
8BB/L	.	.	.	.	.	.	.	.	.	.	.	.	.	.	.	.	.
8F#\	.	.	.	.	.	.	.	4ee\	.	4cc#\	.	4ee\	.	.	.	.	.
8FF#/J	.	.	.	.	.	.	.	.	.	.	.	.	.	.	.	.	.
=95	=95	=95	=95	=95	=95	=95	=95	=95	=95	=95	=95	=95	=95	=95	=95	=95	=95
!	!	!	!	!LO:N:vis=0	!	!	!	!LO:LB:g=original	!	!	!	!	!	!	!	!	!
4BB/	.	2ryy	.	1r	.	2ryy	.	16dd#X\LL	-ste	16b\LL	.	16dd#X\LL	.	2ryy	2ryy	2ryy	2ryy
.	.	.	.	.	.	.	.	16b\	.	16b\	.	16b\	.	.	.	.	.
.	.	.	.	.	.	.	.	16cc#\	.	16a#X\	.	16cc#\	.	.	.	.	.
.	.	.	.	.	.	.	.	16dd#\JJ	.	16b\JJ	.	16dd#\JJ	.	.	.	.	.
4r	.	.	.	.	.	.	.	16ee\LL	.	16cc#\LL	.	16ee\LL	.	.	.	.	.
.	.	.	.	.	.	.	.	16ff#\	.	16dd#X\	.	16ff#\	.	.	.	.	.
.	.	.	.	.	.	.	.	16gg#\	.	16ee\	.	16gg#\	.	.	.	.	.
.	.	.	.	.	.	.	.	16aa#X\JJ	.	16dd#\JJ	.	16aa#X\JJ	.	.	.	.	.
=96	=96	=96	=96	=96	=96	=96	=96	=96	=96	=96	=96	=96	=96	=96	=96	=96	=96
!LO:TX:a:t=problem:mixed beam	!	!	!	!	!	!	!	!	!	!	!	!	!	!	!	!	!
8BB/L	.	2ryy	.	.	.	2ryy	.	8.bb\L	e	8.dd#X\L	.	8.bb\L	.	2ryy	2ryy	2ryy	2ryy
8B\	.	.	.	.	.	.	.	.	.	.	.	.	.	.	.	.	.
.	.	.	.	.	.	.	.	16ff#\Jk	lei-	16dd#\Jk	.	16ff#\Jk	.	.	.	.	.
.	.	.	.	.	.	.	.	8qqff#/	.	8qqdd#/	.	8qqff#/	.	.	.	.	.
8A#X\	.	.	.	.	.	.	.	4ee\	.	4cc#\	.	4ee\	.	.	.	.	.
8F#\J	.	.	.	.	.	.	.	.	.	.	.	.	.	.	.	.	.
=97	=97	=97	=97	=97	=97	=97	=97	=97	=97	=97	=97	=97	=97	=97	=97	=97	=97
.	.	.	.	.	.	.	.	8qqee/	.	.	.	.	.	.	.	.	.
4B\	.	2ryy	.	2r	.	2ryy	.	4dd#X\	-son	8b/L	.	8dd#X\L	.	2ryy	2ryy	2ryy	2ryy
.	.	.	.	.	.	.	.	.	.	16b/L	.	16b\L	.	.	.	.	.
.	.	.	.	.	.	.	.	.	.	16cc#/JJ	.	16cc#\JJ	.	.	.	.	.
!	!	!	!	!	!	!	!	!	!	!	!	!LO:LB:g=original	!	!	!	!	!
4r	.	.	.	.	.	.	.	4r	.	16b/LL	.	16b/LL	.	.	.	.	.
.	.	.	.	.	.	.	.	.	.	16an/	.	16an/	.	.	.	.	.
.	.	.	.	.	.	.	.	.	.	16g#/	.	16g#/	.	.	.	.	.
.	.	.	.	.	.	.	.	.	.	16f#/JJ	.	16f#/JJ	.	.	.	.	.
=98	=98	=98	=98	=98	=98	=98	=98	=98	=98	=98	=98	=98	=98	=98	=98	=98	=98
!	!	!	!	!	!	!	!	!LO:N:vis=0	!	!	!LO:DY:t=pia	!	!	!	!	!	!
8r	.	2ryy	.	4B\	Chri-	2ryy	.	1r	.	8.e/L	p	32e/LLL	f	2ryy	2ryy	2ryy	2ryy
.	.	.	.	.	.	.	.	.	.	.	.	32g#/J	.	.	.	.	.
.	.	.	.	.	.	.	.	.	.	.	.	16b/JJ	.	.	.	.	.
!LO:TX:a:t=problem:mixed beam	!	!	!	!	!	!	!	!	!	!	!	!	!	!	!	!	!
8E\L	.	.	.	.	.	.	.	.	.	.	.	8r	.	.	.	.	.
.	.	.	.	.	.	.	.	.	.	16g#/Jk	.	.	.	.	.	.	.
.	.	.	.	8qqB/	.	.	.	.	.	8qqg#/	.	8qqb/	.	.	.	.	.
8B\	.	.	.	4A\	-ste	.	.	.	.	4f#/	.	4a/	.	.	.	.	.
8BB/J	.	.	.	.	.	.	.	.	.	.	.	.	.	.	.	.	.
=99	=99	=99	=99	=99	=99	=99	=99	=99	=99	=99	=99	=99	=99	=99	=99	=99	=99
!	!	!	!	!	!	!	!	!	!	!LO:LB:g=original	!	!	!	!	!	!	!
4E\	.	2ryy	.	16G#/	.	2ryy	.	.	.	16e/LL	.	16g#/LL	.	2ryy	2ryy	2ryy	2ryy
.	.	.	.	16E/LL	.	.	.	.	.	16e/	.	16e/	.	.	.	.	.
.	.	.	.	16F#/	.	.	.	.	.	16d#X/	.	16f#/	.	.	.	.	.
.	.	.	.	16G#/JJ	.	.	.	.	.	16e/JJ	.	16g#/JJ	.	.	.	.	.
4r	.	.	.	16A\LL	.	.	.	.	.	16f#/LL	.	16a\LL	.	.	.	.	.
.	.	.	.	16B\	.	.	.	.	.	16g#/	.	16b\	.	.	.	.	.
.	.	.	.	16c#\	.	.	.	.	.	16a/	.	16cc#\	.	.	.	.	.
.	.	.	.	16d#X\JJ	e	.	.	.	.	16f#/JJ	.	16dd#X\JJ	.	.	.	.	.
=100	=100	=100	=100	=100	=100	=100	=100	=100	=100	=100	=100	=100	=100	=100	=100	=100	=100
8E\L	.	2ryy	.	8.e\L	-le-	2ryy	.	2r	.	8.g#/L	.	8.ee\L	.	2ryy	2ryy	2ryy	2ryy
8E\J	.	.	.	.	.	.	.	.	.	.	.	.	.	.	.	.	.
.	.	.	.	16B\Jk	.	.	.	.	.	16g#/Jk	.	16b\Jk	.	.	.	.	.
.	.	.	.	8qqB/	.	.	.	.	.	8qqg#/	.	8qqb/	.	.	.	.	.
!LO:LB:g=original	!	!	!	!	!	!	!	!	!	!	!	!	!	!	!	!	!
8D#X\L	.	.	.	4A\	-y-	.	.	.	.	4f#/	.	4a/	.	.	.	.	.
8BB\J	.	.	.	.	.	.	.	.	.	.	.	.	.	.	.	.	.
=101	=101	=101	=101	=101	=101	=101	=101	=101	=101	=101	=101	=101	=101	=101	=101	=101	=101
.	.	.	.	8qqA/	.	.	.	.	.	8qqf#/	.	8qqa/	.	.	.	.	.
*tremolo	*	*	*	*	*	*	*	*	*	*	*	*	*	*	*	*	*
8E\L	.	2ryy	.	4G#/	-son	2ryy	.	2r	.	4e/	.	4g#/	.	2ryy	2ryy	2ryy	2ryy
8E\	.	.	.	.	.	.	.	.	.	.	.	.	.	.	.	.	.
8E\	.	.	.	4G#/	Chri-	.	.	.	.	4g#/	.	4b\	p	.	.	.	.
8E\J	.	.	.	.	.	.	.	.	.	.	.	.	.	.	.	.	.
*Xtremolo	*	*	*	*	*	*	*	*	*	*	*	*	*	*	*	*	*
=102	=102	=102	=102	=102	=102	=102	=102	=102	=102	=102	=102	=102	=102	=102	=102	=102	=102
4E\	.	2ryy	.	8B\	-ste	2ryy	.	4r	.	8b\L	.	8ddn\L	.	2ryy	2ryy	2ryy	2ryy
.	.	.	.	8dn\	e-	.	.	.	.	8ddn\J	.	8ff#\J	.	.	.	.	.
.	.	.	.	.	.	.	.	.	.	8qqcc#/	.	8qqee/	.	.	.	.	.
8r	.	.	.	8.c#\L	-lei-	.	.	4b\	Chry-	4b\	.	4dd\	.	.	.	.	.
8G#\	.	.	.	.	.	.	.	.	.	.	.	.	.	.	.	.	.
.	.	.	.	16B\Jk	.	.	.	.	.	.	.	.	.	.	.	.	.
=103	=103	=103	=103	=103	=103	=103	=103	=103	=103	=103	=103	=103	=103	=103	=103	=103	=103
!	!	!	!	!LO:LB:g=original	!	!	!	!	!	!	!	!	!	!	!	!	!
4A\	.	2ryy	.	8A\	-son	2ryy	.	4cc#\	-ste	8cc#\L	.	8cc#\L	.	2ryy	2ryy	2ryy	2ryy
.	.	.	.	8d\	e-	.	.	.	.	8dd\J	.	8ff#\J	.	.	.	.	.
.	.	.	.	.	.	.	.	.	.	8qqcc#/	.	8qqee/	.	.	.	.	.
8r	.	.	.	8c#\	-ley-	.	.	8ee\	e-	4b\	.	4dd\	.	.	.	.	.
8G#\	.	.	.	8B\	.	.	.	8dd\	-ley-	.	.	.	.	.	.	.	.
=104	=104	=104	=104	=104	=104	=104	=104	=104	=104	=104	=104	=104	=104	=104	=104	=104	=104
.	.	.	.	.	.	.	.	8qqdd/	.	.	.	.	.	.	.	.	.
!	!LO:DY:t=f:	!	!	!	!	!	!	!	!	!	!	!	!	!	!	!	!
8A\L	f	2ryy	.	4A/	-son	2ryy	.	4cc#\	-son	24a\LL	.	24cc#\LL	f	2ryy	2ryy	2ryy	2ryy
.	.	.	.	.	.	.	.	.	.	24ee\	.	24ee\	.	.	.	.	.
!	!	!	!	!	!	!	!	!	!	!	!LO:DY:t=for	!	!	!	!	!	!
.	.	.	.	.	.	.	.	.	.	24aa\JJ	f	24aa\JJ	.	.	.	.	.
8E\J	.	.	.	.	.	.	.	.	.	24a\LL	.	24cc#\LL	.	.	.	.	.
.	.	.	.	.	.	.	.	.	.	24ee\	.	24ee\	.	.	.	.	.
.	.	.	.	.	.	.	.	.	.	24aa\JJ	.	24aa\JJ	.	.	.	.	.
!	!	!	!	!	!	!	!	!	!	!	!	!LO:TX:b:t=Verte Citi	!	!	!	!	!
4AA/	.	.	.	4r	.	.	.	4r	.	4a/	.	4a/	.	.	.	.	.
=105	=105	=105	=105	=105	=105	=105	=105	=105	=105	=105	=105	=105	=105	=105	=105	=105	=105
!	!	!	!	!	!	!	!	!	!	!	!	!LO:PB:g=original	!	!	!	!	!
8r	.	2ryy	.	4c#\	Chris-	2ryy	.	4ee\	Chri-	4cc#\	.	4ee\	p	2ryy	2ryy	2ryy	2ryy
!LO:TX:a:t=problem:mixed beam	!LO:DY:t=p:	!	!	!	!	!	!	!	!	!	!	!	!	!	!	!	!
8AA/L	p	.	.	.	.	.	.	.	.	.	.	.	.	.	.	.	.
.	.	.	.	8qqc#/	.	.	.	.	.	8qqcc#/	.	.	.	.	.	.	.
8E\	.	.	.	4B\	-te	.	.	4dd\	.	4b\	.	4dd\	.	.	.	.	.
8EE/J	.	.	.	.	.	.	.	.	.	.	.	.	.	.	.	.	.
=106	=106	=106	=106	=106	=106	=106	=106	=106	=106	=106	=106	=106	=106	=106	=106	=106	=106
!	!	!	!	!	!	!	!	!LO:LB:g=original	!	!	!	!	!	!	!	!	!
4AA/	.	2ryy	.	16A\	e-	2ryy	.	16cc#`\LL	-ste-	(16a\LL	.	16cc#\LL	.	2ryy	2ryy	2ryy	2ryy
.	.	.	.	16A\LL	.	.	.	(16a\	.	16a\	.	16a\	.	.	.	.	.
.	.	.	.	16G#\	.	.	.	16b\	.	16g#\	.	16b\	.	.	.	.	.
.	.	.	.	16A\JJ	.	.	.	16cc#\JJ)	.	16a\JJ)	.	16cc#\JJ	.	.	.	.	.
4r	.	.	.	16B\LL	.	.	.	16dd\LL	.	(16b\LL	.	16dd\LL	.	.	.	.	.
.	.	.	.	16c#\JJ	.	.	.	16ee\	.	16cc#\	.	16ee\	.	.	.	.	.
.	.	.	.	16d\LL	.	.	.	16ff#\	.	16dd\	.	16ff#\	.	.	.	.	.
.	.	.	.	16B\JJ	.	.	.	16gg#\JJ	-e	16b\JJ)	.	16gg#\JJ	.	.	.	.	.
=107	=107	=107	=107	=107	=107	=107	=107	=107	=107	=107	=107	=107	=107	=107	=107	=107	=107
!	!	!	!	!	!	!	!	!	!	!LO:LB:g=original	!	!	!	!	!	!	!
8AA/L	.	2ryy	.	8c#\	-lei-	2ryy	.	8.aa\L	-ley-	8.cc#\L	.	8.aa\L	.	2ryy	2ryy	2ryy	2ryy
8C#/	.	.	.	8c#\	.	.	.	.	.	.	.	.	.	.	.	.	.
.	.	.	.	.	.	.	.	16ee\Jk	.	16cc#\Jk	.	16ee\Jk	.	.	.	.	.
.	.	.	.	8qqc#/	.	.	.	8qqee/	.	8qqcc#/	.	8qqee/	.	.	.	.	.
8E/	.	.	.	4B\	.	.	.	4dd\	.	4b\	.	4dd\	.	.	.	.	.
8EE/J	.	.	.	.	.	.	.	.	.	.	.	.	.	.	.	.	.
=108	=108	=108	=108	=108	=108	=108	=108	=108	=108	=108	=108	=108	=108	=108	=108	=108	=108
.	.	.	.	.	.	.	.	8qqdd/	.	.	.	.	.	.	.	.	.
4AA/	.	2ryy	.	8A\	-son	2ryy	.	8cc#\	-son	8a\L	.	8cc#\L	.	2ryy	2ryy	2ryy	2ryy
.	.	.	.	16A\LL	e-	.	.	16cc#\LL	e-	16a\L	.	16cc#\L	.	.	.	.	.
.	.	.	.	16B\JJ	.	.	.	16dd\JJ	.	16b\JJ	.	16dd\JJ	.	.	.	.	.
.	.	.	.	.	.	.	.	.	.	8qqb/	.	8qqdd/	.	.	.	.	.
16r	.	.	.	4c#\	.	.	.	4ee\	.	4cc#\	.	4ee\	.	.	.	.	.
16AA/LL	.	.	.	.	.	.	.	.	.	.	.	.	.	.	.	.	.
16C#/	.	.	.	.	.	.	.	.	.	.	.	.	.	.	.	.	.
16AA/JJ	.	.	.	.	.	.	.	.	.	.	.	.	.	.	.	.	.
=109	=109	=109	=109	=109	=109	=109	=109	=109	=109	=109	=109	=109	=109	=109	=109	=109	=109
!LO:LB:g=original	!	!	!	!	!	!	!	!	!	!	!	!	!	!	!	!	!
.	.	.	.	.	.	.	.	8qqee/	.	8qqcc#/	.	8qqee/	.	.	.	.	.
4E\	.	2ryy	.	8B\	-lei-	2ryy	.	8dd\	-ley-	8b\L	.	8dd\L	.	2ryy	2ryy	2ryy	2ryy
.	.	.	.	16G#\LL	.	.	.	16b\L	.	16g#\L	.	16b\L	.	.	.	.	.
.	.	.	.	16A\JJ	.	.	.	16cc#\J	.	16a\JJ	.	16cc#\JJ	.	.	.	.	.
.	.	.	.	.	.	.	.	.	.	8qqa/	.	8qqcc#/	.	.	.	.	.
16r	.	.	.	4B\	.	.	.	4dd\	.	4b\	.	4dd\	.	.	.	.	.
16E\LL	.	.	.	.	.	.	.	.	.	.	.	.	.	.	.	.	.
16G#\	.	.	.	.	.	.	.	.	.	.	.	.	.	.	.	.	.
16E\JJ	.	.	.	.	.	.	.	.	.	.	.	.	.	.	.	.	.
=110	=110	=110	=110	=110	=110	=110	=110	=110	=110	=110	=110	=110	=110	=110	=110	=110	=110
!	!	!	!	!LO:LB:g=original	!	!	!	!	!	!	!	!	!	!	!	!	!
4A\	.	2ryy	.	8A\	-son	2ryy	.	8cc#\	-son	8a\L	.	8cc#\L	.	2ryy	2ryy	2ryy	2ryy
.	.	.	.	16A\LL	.	.	.	16cc#\LL	e-	16a\L	.	16cc#\L	.	.	.	.	.
.	.	.	.	16B\JJ	.	.	.	16dd\JJ	.	16b\JJ	.	16dd\JJ	.	.	.	.	.
.	.	.	.	.	.	.	.	.	.	8qqb/	.	8qdd/	.	.	.	.	.
16r	.	.	.	4c#\	Chris-	.	.	4ee\	-ley-	4cc#\	.	4ee\	.	.	.	.	.
16AA/LL	.	.	.	.	.	.	.	.	.	.	.	.	.	.	.	.	.
16C#/	.	.	.	.	.	.	.	.	.	.	.	.	.	.	.	.	.
16AA/JJ	.	.	.	.	.	.	.	.	.	.	.	.	.	.	.	.	.
=111	=111	=111	=111	=111	=111	=111	=111	=111	=111	=111	=111	=111	=111	=111	=111	=111	=111
!	!	!	!	!	!	!	!	!LO:LB:g=original	!	!	!	!	!	!	!	!	!
.	.	.	.	.	.	.	.	.	.	8qqcc#/	.	8qqee/	.	.	.	.	.
4E\	.	2ryy	.	8B\	-te	2ryy	.	8dd\	-son	8b\L	.	8dd\L	.	2ryy	2ryy	2ryy	2ryy
.	.	.	.	16G#\LL	e-	.	.	16b\LL	.	16g#\L	.	16b\L	.	.	.	.	.
.	.	.	.	16A\JJ	.	.	.	16cc#\JJ	.	16a\JJ	.	16cc#\JJ	.	.	.	.	.
.	.	.	.	.	.	.	.	.	.	8qqa/	.	8qqcc#/	.	.	.	.	.
16r	.	.	.	4B\	-lei-	.	.	4dd\	Chri-	4b\	.	4dd\	.	.	.	.	.
16E\LL	.	.	.	.	.	.	.	.	.	.	.	.	.	.	.	.	.
16G#\	.	.	.	.	.	.	.	.	.	.	.	.	.	.	.	.	.
16E\JJ	.	.	.	.	.	.	.	.	.	.	.	.	.	.	.	.	.
=112	=112	=112	=112	=112	=112	=112	=112	=112	=112	=112	=112	=112	=112	=112	=112	=112	=112
4A\	.	2ryy	.	8A\	-son	2ryy	.	8cc#\	-ste	8a\L	.	8cc#\L	.	2ryy	2ryy	2ryy	2ryy
.	.	.	.	8c#\	Kri-	.	.	8ee\	.	8cc#\	.	8ee\	.	.	.	.	.
8D\L	.	.	.	8B\L	-ste	.	.	8dd\L	-ley-	8b\	.	8dd\	.	.	.	.	.
8D#X\J	.	.	.	8A\J	e-	.	.	8cc#\J	.	8a\J	.	8cc#\J	.	.	.	.	.
=113	=113	=113	=113	=113	=113	=113	=113	=113	=113	=113	=113	=113	=113	=113	=113	=113	=113
*tremolo	*	*	*	*	*	*	*	*	*	*	*	*	*	*	*	*	*
8E\L	.	2ryy	.	4A\	-lei-	2ryy	.	4cc#\	.	4a/	.	4cc#\	.	2ryy	2ryy	2ryy	2ryy
8E\	.	.	.	.	.	.	.	.	.	.	.	.	.	.	.	.	.
8E\	.	.	.	4G#\	-son	.	.	4b\	-son	4g#/	.	4b\	.	.	.	.	.
8E\J	.	.	.	.	.	.	.	.	.	.	.	.	.	.	.	.	.
=114	=114	=114	=114	=114	=114	=114	=114	=114	=114	=114	=114	=114	=114	=114	=114	=114	=114
!	!	!	!	!	!	!	!	!	!	!	!	!LO:LB:g=original	!	!	!	!	!
8E\L	.	2ryy	.	4G#/	C(hri)-	2ryy	.	4b\	Chri-	8.g#/L	.	8.b\L	.	2ryy	2ryy	2ryy	2ryy
8E\	.	.	.	.	.	.	.	.	.	.	.	.	.	.	.	.	.
.	.	.	.	.	.	.	.	.	.	16b/Jk	.	16dd\Jk	.	.	.	.	.
8E\	.	.	.	8.d\L	-ste	.	.	8.ff#\L	.	8.dd\L	.	8.ff#\L	.	.	.	.	.
8E\J	.	.	.	.	.	.	.	.	.	.	.	.	.	.	.	.	.
.	.	.	.	16c#\Jk	.	.	.	16ee\Jk	ste	16cc#\Jk	.	16ee\Jk	.	.	.	.	.
=115	=115	=115	=115	=115	=115	=115	=115	=115	=115	=115	=115	=115	=115	=115	=115	=115	=115
!	!	!	!	!	!	!	!	!	!	!LO:LB:g=original	!	!	!	!	!	!	!
.	.	.	.	.	.	.	.	8qqee/	.	8qqcc#/	.	8qqee/	.	.	.	.	.
8E\L	.	2ryy	.	4B\	e-	2ryy	.	4dd\	e-	4b\	.	4dd\	.	2ryy	2ryy	2ryy	2ryy
8G#\	.	.	.	.	.	.	.	.	.	.	.	.	.	.	.	.	.
8A\	.	.	.	8A\L	.	.	.	8cc#\L	.	8a\L	.	24cc#\LL	.	.	.	.	.
.	.	.	.	.	.	.	.	.	.	.	.	24aa\	.	.	.	.	.
.	.	.	.	.	.	.	.	.	.	.	.	24gg#\JJ	.	.	.	.	.
8E\J	.	.	.	8B\J	.	.	.	8dd\J	.	8b\J	.	24ff#\LL	.	.	.	.	.
.	.	.	.	.	.	.	.	.	.	.	.	24ee\	.	.	.	.	.
.	.	.	.	.	.	.	.	.	.	.	.	24dd\JJ	.	.	.	.	.
=116	=116	=116	=116	=116	=116	=116	=116	=116	=116	=116	=116	=116	=116	=116	=116	=116	=116
!LO:TX:a:t=problem:mixed beam	!	!	!	!	!	!	!	!	!	!	!	!	!	!	!	!	!
8E\L	.	2ryy	.	4A\	-lei-	2ryy	.	4cc#\	-ley-	4a/	.	4cc#\	.	2ryy	2ryy	2ryy	2ryy
8D\	.	.	.	.	.	.	.	.	.	.	.	.	.	.	.	.	.
8E\	.	.	.	4G#\	-son	.	.	4b\	-son	4g#/	.	4b\	.	.	.	.	.
8EE/J	.	.	.	.	.	.	.	.	.	.	.	.	.	.	.	.	.
=117	=117	=117	=117	=117	=117	=117	=117	=117	=117	=117	=117	=117	=117	=117	=117	=117	=117
8E\L	.	2ryy	.	4G#\	Chri-	2ryy	.	4b\	Chri-	8.g#/L	.	8.b\L	.	2ryy	2ryy	2ryy	2ryy
8E\	.	.	.	.	.	.	.	.	.	.	.	.	.	.	.	.	.
.	.	.	.	.	.	.	.	.	.	16b/Jk	.	16dd\Jk	.	.	.	.	.
8E\	.	.	.	8.d\L	-ste	.	.	8.ff#\L	-ste	8.dd\L	.	8.ff#\L	.	.	.	.	.
8E\J	.	.	.	.	.	.	.	.	.	.	.	.	.	.	.	.	.
.	.	.	.	16c#\Jk	.	.	.	16ee\Jk	.	16cc#\Jk	.	16ee\Jk	.	.	.	.	.
*Xtremolo	*	*	*	*	*	*	*	*	*	*	*	*	*	*	*	*	*
=118	=118	=118	=118	=118	=118	=118	=118	=118	=118	=118	=118	=118	=118	=118	=118	=118	=118
!	!	!	!	!LO:LB:g=original	!	!	!	!LO:LB:g=original	!	!	!	!	!	!	!	!	!
.	.	.	.	8qqc#/	.	.	.	8qqee/	.	8qqcc#/	.	8qqee/	.	.	.	.	.
8E\L	.	2ryy	.	4B\	e-	2ryy	.	4dd\	e-	4b\	.	4dd\	.	2ryy	2ryy	2ryy	2ryy
8G#\	.	.	.	.	.	.	.	.	.	.	.	.	.	.	.	.	.
*	*	*	*	*	*	*	*	*Xtuplet	*	*	*	*	*	*	*	*	*
8A\	.	.	.	8A\L	.	.	.	(12cc#\L	.	8a\L	.	24cc#\LL	.	.	.	.	.
.	.	.	.	.	.	.	.	.	.	.	.	24aa\	.	.	.	.	.
.	.	.	.	.	.	.	.	12a\	.	.	.	24gg#\JJ	.	.	.	.	.
8E\J	.	.	.	8B\J	.	.	.	.	.	8b\J	.	24ff#\LL	.	.	.	.	.
.	.	.	.	.	.	.	.	12dd\J)	.	.	.	24ee\	.	.	.	.	.
.	.	.	.	.	.	.	.	.	.	.	.	24dd\JJ	.	.	.	.	.
=119	=119	=119	=119	=119	=119	=119	=119	=119	=119	=119	=119	=119	=119	=119	=119	=119	=119
!LO:TX:a:t=problem:mixed beam	!	!	!	!	!	!	!	!	!	!	!	!	!	!	!	!	!
8E\L	.	2ryy	.	4A\	-lei-	2ryy	.	4cc#\	-ley-	4a/	.	4cc#\	.	2ryy	2ryy	2ryy	2ryy
8D\	.	.	.	.	.	.	.	.	.	.	.	.	.	.	.	.	.
!	!	!	!	!	!	!	!	!LO:TX:a:i:t=t	!	!	!	!	!	!	!	!	!
8E\	.	.	.	4G#\	.	.	.	4b\	.	4g#/	.	4b\	.	.	.	.	.
8EE/J	.	.	.	.	.	.	.	.	.	.	.	.	.	.	.	.	.
=120	=120	=120	=120	=120	=120	=120	=120	=120	=120	=120	=120	=120	=120	=120	=120	=120	=120
4AA/	.	2ryy	.	4A\	-son	2ryy	.	4a/	-son	8a/L	.	8a/L	.	2ryy	2ryy	2ryy	2ryy
.	.	.	.	.	.	.	.	.	.	8e/J	.	8e/J	.	.	.	.	.
!	!	!	!	!	!	!	!	!	!	!LO:TX:a:t=da capo al segno	!	!LO:TX:a:t=da capo al segno	!	!	!	!	!
8C#/L	.	.	.	4r	.	.	.	4r	.	4A/	.	4A/	.	.	.	.	.
!LO:TX:a:t=da capo fine al segno	!	!	!	!	!	!	!	!	!	!	!	!	!	!	!	!	!
!LO:TX:a:t=Da capo Kutie	!	!	!	!	!	!	!	!	!	!	!	!	!	!	!	!	!
8E/J	.	.	.	.	.	.	.	.	.	.	.	.	.	.	.	.	.
=121	=121	=121	=121	=121	=121	=121	=121	=121	=121	=121||	=121	=121||	=121	=121	=121	=121	=121
!	!	!	!	!	!	!	!	!LO:TX:a:t=25	!	!	!	!	!	!	!	!	!
!LO:TX:a:t=problem:mixed beam	!	!	!	!LO:N:vis=00	!	!	!	!LO:N:vis=00	!	!	!	!	!	!	!	!	!
8AA/L	.	2ryy	.	0r	.	2ryy	.	0r	.	4ee\	.	4ee\	.	2ryy	2ryy	2ryy	2ryy
8c#\	.	.	.	.	.	.	.	.	.	.	.	.	.	.	.	.	.
.	.	.	.	.	.	.	.	.	.	8qqee/	.	.	.	.	.	.	.
8B\	.	.	.	.	.	.	.	.	.	4dd\	.	4dd\	.	.	.	.	.
8E\J	.	.	.	.	.	.	.	.	.	.	.	.	.	.	.	.	.
=122	=122	=122	=122	=122	=122	=122	=122	=122	=122	=122	=122	=122	=122	=122	=122	=122	=122
4A\	.	2ryy	.	.	.	2ryy	.	.	.	(16cc#\LL	.	(16cc#\LL	.	2ryy	2ryy	2ryy	2ryy
.	.	.	.	.	.	.	.	.	.	16a\	.	16a\	.	.	.	.	.
.	.	.	.	.	.	.	.	.	.	16b\	.	16b\	.	.	.	.	.
.	.	.	.	.	.	.	.	.	.	16cc#\JJ)	.	16cc#\JJ)	.	.	.	.	.
4r	.	.	.	.	.	.	.	.	.	(16dd\LL	.	(16dd\LL	.	.	.	.	.
.	.	.	.	.	.	.	.	.	.	16ee\	.	16ee\	.	.	.	.	.
.	.	.	.	.	.	.	.	.	.	16ff#\	.	16ff#\	.	.	.	.	.
.	.	.	.	.	.	.	.	.	.	16gg#\JJ)	.	16gg#\JJ)	.	.	.	.	.
=123	=123	=123	=123	=123	=123	=123	=123	=123	=123	=123	=123	=123	=123	=123	=123	=123	=123
8AA\L	.	2ryy	.	.	.	2ryy	.	.	.	8.aa\L	.	8.aa\L	.	2ryy	2ryy	2ryy	2ryy
8E\	.	.	.	.	.	.	.	.	.	.	.	.	.	.	.	.	.
.	.	.	.	.	.	.	.	.	.	16ee\Jk	.	16ee\Jk	.	.	.	.	.
.	.	.	.	.	.	.	.	.	.	8qqee/	.	8qqee/	.	.	.	.	.
8F#\	.	.	.	.	.	.	.	.	.	4dd\	.	4dd\	.	.	.	.	.
8G#\J	.	.	.	.	.	.	.	.	.	.	.	.	.	.	.	.	.
=124	=124	=124	=124	=124	=124	=124	=124	=124	=124	=124	=124	=124	=124	=124	=124	=124	=124
.	.	.	.	.	.	.	.	.	.	8qqdd/	.	8qqdd/	.	.	.	.	.
!LO:TX:a:t=problem:mixed beam	!	!	!	!	!	!	!	!	!	!	!	!	!	!	!	!	!
8A\L	.	2ryy	.	.	.	2ryy	.	.	.	4cc#\	.	4cc#\	.	2ryy	2ryy	2ryy	2ryy
8A\	.	.	.	.	.	.	.	.	.	.	.	.	.	.	.	.	.
8AA/ 8C#	.	.	.	.	.	.	.	.	.	8r	.	8r	.	.	.	.	.
8AA/J 8C#	.	.	.	.	.	.	.	.	.	8e/	.	8e/	.	.	.	.	.
=125	=125	=125	=125	=125	=125	=125	=125	=125	=125	=125	=125	=125	=125	=125	=125	=125	=125
!	!	!	!	!LO:N:vis=00	!	!	!	!LO:N:vis=00	!	!LO:TX:a:t=problem:mixed beam	!	!	!	!	!	!	!
8D\L	.	2ryy	.	0r	.	2ryy	.	0r	.	8f#/L	.	8f#/L	.	2ryy	2ryy	2ryy	2ryy
8D\	.	.	.	.	.	.	.	.	.	(16dd\L	.	16dd/L	.	.	.	.	.
.	.	.	.	.	.	.	.	.	.	16b\JJ)	.	16b/JJ	.	.	.	.	.
.	.	.	.	.	.	.	.	.	.	.	.	8qqa/	.	.	.	.	.
8E\	.	.	.	.	.	.	.	.	.	8a/L	.	4g#/	.	.	.	.	.
8E\J	.	.	.	.	.	.	.	.	.	8g#/J	.	.	.	.	.	.	.
=126	=126	=126	=126	=126	=126	=126	=126	=126	=126	=126	=126	=126	=126	=126	=126	=126	=126
!LO:TX:a:t=problem:mixed beam	!	!	!	!	!	!	!	!	!	!	!	!	!	!	!	!	!
8AA/L	.	2ryy	.	.	.	2ryy	.	.	.	8.a\L	.	8.a\L	.	2ryy	2ryy	2ryy	2ryy
8d\	.	.	.	.	.	.	.	.	.	.	.	.	.	.	.	.	.
.	.	.	.	.	.	.	.	.	.	16ff#\K	.	16ff#\Jk	.	.	.	.	.
.	.	.	.	.	.	.	.	.	.	.	.	8qqff#/	.	.	.	.	.
8c#\	.	.	.	.	.	.	.	.	.	8.ee\	.	8.ee\L	.	.	.	.	.
8G#\J	.	.	.	.	.	.	.	.	.	.	.	.	.	.	.	.	.
.	.	.	.	.	.	.	.	.	.	16dd\Jk	.	16dd\Jk	.	.	.	.	.
=127	=127	=127	=127	=127	=127	=127	=127	=127	=127	=127	=127	=127	=127	=127	=127	=127	=127
!LO:LB:g=original	!	!	!	!	!	!	!	!	!	!	!	!	!	!	!	!	!
8A\L	.	2ryy	.	.	.	2ryy	.	.	.	8cc#\L	.	8cc#\L	.	2ryy	2ryy	2ryy	2ryy
8C#\	.	.	.	.	.	.	.	.	.	16aa\L	.	16aa\L	.	.	.	.	.
.	.	.	.	.	.	.	.	.	.	16ee\JJ	.	16ee\JJ	.	.	.	.	.
8D\	.	.	.	.	.	.	.	.	.	16dd\LL	.	16dd\LL	.	.	.	.	.
.	.	.	.	.	.	.	.	.	.	16cc#\	.	16cc#\	.	.	.	.	.
8D#X\J	.	.	.	.	.	.	.	.	.	16b\	.	16b\	.	.	.	.	.
.	.	.	.	.	.	.	.	.	.	16a\JJ	.	16a\JJ	.	.	.	.	.
=128	=128	=128	=128	=128	=128	=128	=128	=128	=128	=128	=128	=128	=128	=128	=128	=128	=128
!	!	!	!	!	!	!	!	!	!	!LO:LB:g=original	!	!	!	!	!	!	!
.	.	.	.	.	.	.	.	.	.	8qqa/	.	8qqa/	.	.	.	.	.
8E\L	.	2ryy	.	.	.	2ryy	.	.	.	4g#/	.	4g#/	.	2ryy	2ryy	2ryy	2ryy
8E\	.	.	.	.	.	.	.	.	.	.	.	.	.	.	.	.	.
8G#\	.	.	.	.	.	.	.	.	.	4r	.	4r	.	.	.	.	.
8B\J	.	.	.	.	.	.	.	.	.	.	.	.	.	.	.	.	.
=129	=129	=129	=129	=129	=129	=129	=129	=129	=129	=129	=129	=129	=129	=129	=129	=129	=129
*tremolo	*	*	*	*	*	*	*	*	*	*	*	*	*	*	*	*	*
!	!	!	!	!LO:N:vis=00	!	!	!	!LO:N:vis=00	!	!	!LO:DY:t=pia	!LO:LB:g=original	!	!	!	!	!
8E\L	.	2ryy	.	0r	.	2ryy	.	0r	.	8.g#/L	p	8.b\L	.	2ryy	2ryy	2ryy	2ryy
8E\	.	.	.	.	.	.	.	.	.	.	.	.	.	.	.	.	.
.	.	.	.	.	.	.	.	.	.	16cc#/Jk	.	16ee\Jk	p	.	.	.	.
!	!	!	!	!	!	!	!	!	!	!LO:TX:a:t=problem:trudny do rozszyfrowania zapis	!	!	!	!	!	!	!
.	.	.	.	.	.	.	.	.	.	.	.	8qqee/	.	.	.	.	.
8E\	.	.	.	.	.	.	.	.	.	8dd\L	.	8dd#X\L	.	.	.	.	.
!	!	!	!	!	!	!	!	!	!	!LO:TX:a:t=problem:po tej nucie trzy takty zostały wykreślone	!	!	!	!	!	!	!
8E\J	.	.	.	.	.	.	.	.	.	8cc#\J	.	8cc#\J	.	.	.	.	.
=130	=130	=130	=130	=130	=130	=130	=130	=130	=130	=130	=130	=130	=130	=130	=130	=130	=130
8E\L	.	2ryy	.	.	.	2ryy	.	.	.	8.g#/L	.	8.b\L	.	2ryy	2ryy	2ryy	2ryy
8E\	.	.	.	.	.	.	.	.	.	.	.	.	.	.	.	.	.
.	.	.	.	.	.	.	.	.	.	16a/Jk	.	16cc#\Jk	.	.	.	.	.
.	.	.	.	.	.	.	.	.	.	8qqa/	.	8qqcc#/	.	.	.	.	.
8E\	.	.	.	.	.	.	.	.	.	8g#/L	.	8b/L	.	.	.	.	.
8E\J	.	.	.	.	.	.	.	.	.	8f#/J	.	8a/J	.	.	.	.	.
=131	=131	=131	=131	=131	=131	=131	=131	=131	=131	=131	=131	=131	=131	=131	=131	=131	=131
.	.	.	.	.	.	.	.	.	.	8qqf#/	.	8qqa/	.	.	.	.	.
!	!	!	!	!	!	!	!	!	!	!LO:TX:a:t=problem:mixed beam	!	!LO:TX:a:t=problem:mixed beam	!	!	!	!	!
8E\L	.	2ryy	.	.	.	2ryy	.	.	.	8.e/L	.	8.g#/L	.	2ryy	2ryy	2ryy	2ryy
8E\	.	.	.	.	.	.	.	.	.	.	.	.	.	.	.	.	.
.	.	.	.	.	.	.	.	.	.	16cc#\Jk	.	16ee\Jk	.	.	.	.	.
.	.	.	.	.	.	.	.	.	.	8qqcc#/	.	8qqee/	.	.	.	.	.
8E\	.	.	.	.	.	.	.	.	.	8b\L	.	8dd#X\L	.	.	.	.	.
8E\J	.	.	.	.	.	.	.	.	.	8a\J	.	8cc#\J	.	.	.	.	.
=132	=132	=132	=132	=132	=132	=132	=132	=132	=132	=132	=132	=132	=132	=132	=132	=132	=132
.	.	.	.	.	.	.	.	.	.	8qqa/	.	8qqcc#/	.	.	.	.	.
8E\L	.	2ryy	.	.	.	2ryy	.	.	.	8.g#/L	.	8.b\L	.	2ryy	2ryy	2ryy	2ryy
8E\	.	.	.	.	.	.	.	.	.	.	.	.	.	.	.	.	.
.	.	.	.	.	.	.	.	.	.	16a/Jk	.	16cc#\Jk	.	.	.	.	.
8E\	.	.	.	.	.	.	.	.	.	8g#/L	.	8b\L	.	.	.	.	.
8E\J	.	.	.	.	.	.	.	.	.	8f#/J	.	8a\J	.	.	.	.	.
*Xtremolo	*	*	*	*	*	*	*	*	*	*	*	*	*	*	*	*	*
=133	=133	=133	=133	=133	=133	=133	=133	=133	=133	=133	=133	=133	=133	=133	=133	=133	=133
!LO:TX:a:t=problem:mixed beam	!	!	!	!LO:N:vis=00	!	!	!	!LO:N:vis=00	!	!	!	!	!	!	!	!	!
8E\L	.	2ryy	.	0r	.	2ryy	.	0r	.	16e/LL	.	8g#/	.	2ryy	2ryy	2ryy	2ryy
.	.	.	.	.	.	.	.	.	.	16cc#/	.	.	.	.	.	.	.
*	*	*	*	*	*	*	*	*	*	*	*	*tuplet	*	*	*	*	*
8A\	.	.	.	.	.	.	.	.	.	16b/	.	(24aa\LL	.	.	.	.	.
.	.	.	.	.	.	.	.	.	.	.	.	24gg#\	.	.	.	.	.
.	.	.	.	.	.	.	.	.	.	16a/JJ	.	.	.	.	.	.	.
.	.	.	.	.	.	.	.	.	.	.	.	24ff#\JJ)	.	.	.	.	.
.	.	.	.	.	.	.	.	.	.	8qqa/	.	8qqee/	.	.	.	.	.
8B\	.	.	.	.	.	.	.	.	.	4g#/	.	4dd#X\	.	.	.	.	.
8BB/J	.	.	.	.	.	.	.	.	.	.	.	.	.	.	.	.	.
=134	=134	=134	=134	=134	=134	=134	=134	=134	=134	=134	=134	=134	=134	=134	=134	=134	=134
!	!	!	!	!	!	!	!	!	!	!LO:LB:g=original	!	!	!	!	!	!	!
.	.	.	.	.	.	.	.	.	.	8qqf#/	.	8qqdd/	.	.	.	.	.
8E\L	.	2ryy	.	.	.	2ryy	.	.	.	4g#/	.	4ee\	.	2ryy	2ryy	2ryy	2ryy
16E\L	.	.	.	.	.	.	.	.	.	.	.	.	.	.	.	.	.
16Dn\JJ	.	.	.	.	.	.	.	.	.	.	.	.	.	.	.	.	.
8C#/L	.	.	.	.	.	.	.	.	.	4r	.	4r	.	.	.	.	.
8BB/J	.	.	.	.	.	.	.	.	.	.	.	.	.	.	.	.	.
=135	=135	=135	=135	=135	=135	=135	=135	=135	=135	=135	=135	=135	=135	=135	=135	=135	=135
!LO:TX:a:t=problem:mixed beam	!	!	!	!	!	!	!	!	!	!	!	!	!	!	!	!	!
8AA/L	.	2ryy	.	.	.	2ryy	.	.	.	4cc#\	.	4ee\	f	2ryy	2ryy	2ryy	2ryy
8A\	.	.	.	.	.	.	.	.	.	.	.	.	.	.	.	.	.
8c#\	.	.	.	.	.	.	.	.	.	4ee\	.	4ggn\	.	.	.	.	.
8A\J	.	.	.	.	.	.	.	.	.	.	.	.	.	.	.	.	.
=136	=136	=136	=136	=136	=136	=136	=136	=136	=136	=136	=136	=136	=136	=136	=136	=136	=136
4d\	.	2ryy	.	.	.	2ryy	.	.	.	8dd\	.	8ff#\	.	2ryy	2ryy	2ryy	2ryy
.	.	.	.	.	.	.	.	.	.	4gn/	.	4cc#\	.	.	.	.	.
4D\	.	.	.	.	.	.	.	.	.	.	.	.	.	.	.	.	.
.	.	.	.	.	.	.	.	.	.	8f#/	.	8ddn\	.	.	.	.	.
=137	=137	=137	=137	=137	=137	=137	=137	=137	=137	=137	=137	=137	=137	=137	=137	=137	=137
!LO:LB:g=original	!	!	!	!LO:N:vis=00	!	!	!	!LO:N:vis=00	!	!	!	!	!	!	!	!	!
!LO:TX:a:t=problem:mixed beam	!	!	!	!	!	!	!	!	!	!	!	!	!	!	!	!	!
8BB/L	.	2ryy	.	0r	.	2ryy	.	0r	.	4dd#X\	.	4ff#\	.	2ryy	2ryy	2ryy	2ryy
8B\	.	.	.	.	.	.	.	.	.	.	.	.	.	.	.	.	.
8d#X\	.	.	.	.	.	.	.	.	.	4ff#\	.	4aa\	.	.	.	.	.
8B\J	.	.	.	.	.	.	.	.	.	.	.	.	.	.	.	.	.
=138	=138	=138	=138	=138	=138	=138	=138	=138	=138	=138	=138	=138	=138	=138	=138	=138	=138
4E\	.	2ryy	.	.	.	2ryy	.	.	.	8ee\	.	8gg#\	.	2ryy	2ryy	2ryy	2ryy
.	.	.	.	.	.	.	.	.	.	4a/	.	(4dd#X\	.	.	.	.	.
4E\	.	.	.	.	.	.	.	.	.	.	.	.	.	.	.	.	.
.	.	.	.	.	.	.	.	.	.	8g#X/	.	8ee\)	.	.	.	.	.
=139	=139	=139	=139	=139	=139	=139	=139	=139	=139	=139	=139	=139	=139	=139	=139	=139	=139
!	!	!	!	!	!	!	!	!	!	!	!	!LO:LB:g=original	!	!	!	!	!
4E\	.	2ryy	.	.	.	2ryy	.	.	.	8.g#/L	.	8.b\L	.	2ryy	2ryy	2ryy	2ryy
.	.	.	.	.	.	.	.	.	.	16b/Jk	.	16ddn\Jk	.	.	.	.	.
8r	.	.	.	.	.	.	.	.	.	8.ddn\L	.	(8.ff#\L	.	.	.	.	.
8B\	.	.	.	.	.	.	.	.	.	.	.	.	.	.	.	.	.
.	.	.	.	.	.	.	.	.	.	16cc#\Jk	.	16ee\Jk)	.	.	.	.	.
=140	=140	=140	=140	=140	=140	=140	=140	=140	=140	=140	=140	=140	=140	=140	=140	=140	=140
.	.	.	.	.	.	.	.	.	.	8qqcc#/	.	8qqee/	.	.	.	.	.
8E\L	.	2ryy	.	.	.	2ryy	.	.	.	4b\	.	4dd\	.	2ryy	2ryy	2ryy	2ryy
8G#\	.	.	.	.	.	.	.	.	.	.	.	.	.	.	.	.	.
8A\	.	.	.	.	.	.	.	.	.	8a\L	.	(24cc#\LL	.	.	.	.	.
.	.	.	.	.	.	.	.	.	.	.	.	24aa\	.	.	.	.	.
.	.	.	.	.	.	.	.	.	.	.	.	24gg#\JJ)	.	.	.	.	.
8D\J	.	.	.	.	.	.	.	.	.	8b\J	.	(24ff#\LL	.	.	.	.	.
.	.	.	.	.	.	.	.	.	.	.	.	24ee\	.	.	.	.	.
.	.	.	.	.	.	.	.	.	.	.	.	24dd\JJ)	.	.	.	.	.
=141	=141	=141	=141	=141	=141	=141	=141	=141	=141	=141	=141	=141	=141	=141	=141	=141	=141
!LO:TX:a:t=problem:mixed beam	!	!	!	!LO:N:vis=00	!	!	!	!LO:N:vis=00	!	!	!	!	!	!	!	!	!
8E\L	.	2ryy	.	0r	.	2ryy	.	0r	.	4a/	.	4cc#\	.	2ryy	2ryy	2ryy	2ryy
8D\	.	.	.	.	.	.	.	.	.	.	.	.	.	.	.	.	.
8E\	.	.	.	.	.	.	.	.	.	4g#/	.	4b\	.	.	.	.	.
8EE/J	.	.	.	.	.	.	.	.	.	.	.	.	.	.	.	.	.
=142	=142	=142	=142	=142	=142	=142	=142	=142	=142	=142	=142	=142	=142	=142	=142	=142	=142
!	!	!	!	!	!	!	!	!	!	!	!LO:DY:t=pia	!	!	!	!	!	!
4E\	.	2ryy	.	.	.	2ryy	.	.	.	8.g#/L	p	8.b\L	.	2ryy	2ryy	2ryy	2ryy
.	.	.	.	.	.	.	.	.	.	16b/Jk	.	16dd\Jk	p	.	.	.	.
8r	.	.	.	.	.	.	.	.	.	8.dd\L	.	8.ff#\L	.	.	.	.	.
8A\	.	.	.	.	.	.	.	.	.	.	.	.	.	.	.	.	.
.	.	.	.	.	.	.	.	.	.	16cc#\Jk	.	16ee\Jk	.	.	.	.	.
=143	=143	=143	=143	=143	=143	=143	=143	=143	=143	=143	=143	=143	=143	=143	=143	=143	=143
!	!	!	!	!	!	!	!	!	!	!LO:LB:g=original	!	!	!	!	!	!	!
.	.	.	.	.	.	.	.	.	.	8qqcc#/	.	8qqee/	.	.	.	.	.
8E\L	.	2ryy	.	.	.	2ryy	.	.	.	4b\	.	4dd\	.	2ryy	2ryy	2ryy	2ryy
8G#\	.	.	.	.	.	.	.	.	.	.	.	.	.	.	.	.	.
8A\	.	.	.	.	.	.	.	.	.	8a\L	.	(24cc#\LL	.	.	.	.	.
.	.	.	.	.	.	.	.	.	.	.	.	24aa\	.	.	.	.	.
.	.	.	.	.	.	.	.	.	.	.	.	24gg#\JJ)	.	.	.	.	.
*	*	*	*	*	*	*	*	*	*	*	*	*Xtuplet	*	*	*	*	*
8D\J	.	.	.	.	.	.	.	.	.	8b\J	.	24ff#\LL	.	.	.	.	.
.	.	.	.	.	.	.	.	.	.	.	.	24ee\	f	.	.	.	.
.	.	.	.	.	.	.	.	.	.	.	.	24dd\JJ	.	.	.	.	.
=144	=144	=144	=144	=144	=144	=144	=144	=144	=144	=144	=144	=144	=144	=144	=144	=144	=144
!LO:TX:a:t=problem:mixed beam	!	!	!	!	!	!	!	!	!	!	!	!	!	!	!	!	!
8E\L	.	2ryy	.	.	.	2ryy	.	.	.	4a/	.	4cc#\	.	2ryy	2ryy	2ryy	2ryy
8D\	.	.	.	.	.	.	.	.	.	.	.	.	.	.	.	.	.
8E\	.	.	.	.	.	.	.	.	.	4g#/	.	4bT\	.	.	.	.	.
8EE/J	.	.	.	.	.	.	.	.	.	.	.	.	.	.	.	.	.
=145	=145	=145	=145	=145	=145	=145	=145	=145	=145	=145	=145	=145	=145	=145	=145	=145	=145
!	!	!LO:TX:b:t=Kyrie da capo	!	!LO:TX:b:t=Kyrie da capo	!	!LO:TX:b:t=Kyrie da capo	!	!LO:TX:a:t=Kyrie da capo	!	!	!LO:DY:t=for	!	!	!LO:TX:b:t=Kyrie da capo	!LO:TX:b:t=Kyrie da capo	!	!
4AA/	.	2ryy	.	2r	.	2ryy	.	2r	.	8a/L	f	8a/L	.	2ryy	2ryy	2ryy	2ryy
.	.	.	.	.	.	.	.	.	.	8e/J	.	8e/J	.	.	.	.	.
4r;	.	.	.	.	.	.	.	.	.	4A/	.	4A;/	.	.	.	.	.
==	==	==	==	==	==	==	==	==	==	==	==	==	==	==	==	==	==
*-	*-	*-	*-	*-	*-	*-	*-	*-	*-	*-	*-	*-	*-	*-	*-	*-	*-
!!!system-decoration: g1[g2][g3][g4]{g5}
!!!RDF**kern: >= above
!!!RDF**kern: <= below
!!!RDF**dynam: f =fo
!!!RDF**dynam: p = po
!!!ENC: Anna Matuszewska
!!!END: 2020-06-19
!!!YEC: Copyright 2022 Narodowy Instytut Fryderyka Chopina (https://polishscores.org)
!!!YEM: Licence CC BY 4.0 (https://creativecommons.org/licenses/by/4.0)
